app/src/main/assets/lut/fuji_astia.cube
TITLE "Filmic Astia"
LUT_3D_SIZE 17
DOMAIN_MIN 0.0 0.0 0.0
DOMAIN_MAX 1.0 1.0 1.0
0.015000 0.005000 0.000000
0.084187 0.008289 0.000000
0.145910 0.011224 0.000000
0.205097 0.014038 0.000768
0.262696 0.016776 0.004031
0.319142 0.019459 0.007228
0.374686 0.022100 0.010375
0.429490 0.024706 0.013479
0.483670 0.027281 0.016548
0.537309 0.029832 0.019586
0.590472 0.032359 0.022598
0.646712 0.035033 0.025784
0.711912 0.038132 0.029477
0.760167 0.040427 0.032210
0.795968 0.042129 0.034238
0.822587 0.043394 0.035746
0.842417 0.044337 0.036870
0.020633 0.077775 0.000000
0.089820 0.081064 0.001613
0.151543 0.083999 0.005110
0.210730 0.086813 0.008462
0.268329 0.089551 0.011725
0.324775 0.092235 0.014922
0.380319 0.094875 0.018069
0.435123 0.097481 0.021173
0.489303 0.100057 0.024242
0.542942 0.102607 0.027281
0.596105 0.105134 0.030292
0.652345 0.107808 0.033478
0.717545 0.110908 0.037171
0.765801 0.113202 0.039905
0.801601 0.114904 0.041932
0.828220 0.116169 0.043440
0.848050 0.117112 0.044564
0.025659 0.142699 0.004558
0.094846 0.145988 0.008477
0.156568 0.148923 0.011974
0.215756 0.151736 0.015326
0.273355 0.154475 0.018589
0.329801 0.157158 0.021786
0.385344 0.159799 0.024933
0.440149 0.162404 0.028037
0.494328 0.164980 0.031106
0.547967 0.167530 0.034145
0.601130 0.170058 0.037156
0.657370 0.172732 0.040342
0.722570 0.175831 0.044035
0.770826 0.178125 0.046769
0.806627 0.179828 0.048796
0.833245 0.181093 0.050304
0.853076 0.182036 0.051428
0.030478 0.204956 0.011140
0.099665 0.208245 0.015059
0.161387 0.211180 0.018556
0.220575 0.213994 0.021908
0.278174 0.216732 0.025171
0.334620 0.219415 0.028368
0.390163 0.222056 0.031515
0.444968 0.224662 0.034619
0.499147 0.227237 0.037688
0.552786 0.229787 0.040727
0.605949 0.232315 0.043738
0.662189 0.234989 0.046924
0.727389 0.238088 0.050617
0.775645 0.240383 0.053351
0.811446 0.242085 0.055379
0.838064 0.243350 0.056886
0.857895 0.244293 0.058010
0.035167 0.265542 0.017546
0.104354 0.268831 0.021465
0.166077 0.271766 0.024961
0.225264 0.274580 0.028314
0.282863 0.277318 0.031576
0.339309 0.280002 0.034774
0.394853 0.282642 0.037920
0.449657 0.285248 0.041025
0.503837 0.287824 0.044094
0.557476 0.290374 0.047132
0.610639 0.292901 0.050144
0.666879 0.295575 0.053329
0.732079 0.298675 0.057023
0.780335 0.300969 0.059756
0.816135 0.302671 0.061784
0.842754 0.303936 0.063292
0.862584 0.304879 0.064415
0.039763 0.324915 0.023823
0.108950 0.328205 0.027742
0.170673 0.331139 0.031238
0.229860 0.333953 0.034591
0.287459 0.336691 0.037854
0.343905 0.339375 0.041051
0.399449 0.342016 0.044197
0.454253 0.344621 0.047302
0.508433 0.347197 0.050371
0.562072 0.349747 0.053409
0.615235 0.352274 0.056421
0.671475 0.354948 0.059606
0.736675 0.358048 0.063300
0.784930 0.360342 0.066033
0.820731 0.362044 0.068061
0.847350 0.363310 0.069569
0.867180 0.364252 0.070692
0.044285 0.383340 0.030000
0.113472 0.386629 0.033919
0.175195 0.389563 0.037415
0.234383 0.392377 0.040768
0.291982 0.395116 0.044031
0.348427 0.397799 0.047228
0.403971 0.400440 0.050374
0.458776 0.403045 0.053479
0.512955 0.405621 0.056548
0.566594 0.408171 0.059586
0.619757 0.410699 0.062598
0.675997 0.413372 0.065783
0.741197 0.416472 0.069477
0.789453 0.418766 0.072210
0.825254 0.420468 0.074238
0.851872 0.421734 0.075746
0.871702 0.422677 0.076869
0.048748 0.440986 0.036094
0.117935 0.444276 0.040013
0.179657 0.447210 0.043510
0.238845 0.450024 0.046862
0.296444 0.452762 0.050125
0.352890 0.455446 0.053323
0.408433 0.458087 0.056469
0.463238 0.460692 0.059573
0.517417 0.463268 0.062642
0.571056 0.465818 0.065681
0.624219 0.468345 0.068692
0.680459 0.471019 0.071878
0.745659 0.474119 0.075571
0.793915 0.476413 0.078305
0.829716 0.478115 0.080333
0.856334 0.479381 0.081841
0.876091 0.480338 0.083097
0.053159 0.497976 0.042119
0.122346 0.501265 0.046039
0.184069 0.504199 0.049535
0.243256 0.507013 0.052888
0.300855 0.509752 0.056150
0.357301 0.512435 0.059348
0.412845 0.515076 0.062494
0.467649 0.517681 0.065598
0.521829 0.520257 0.068668
0.575467 0.522807 0.071706
0.628631 0.525335 0.074717
0.684870 0.528008 0.077903
0.750070 0.531108 0.081596
0.798234 0.533506 0.084678
0.834095 0.535370 0.086967
0.860758 0.536756 0.088668
0.880622 0.537788 0.089936
0.057526 0.554397 0.048084
0.126713 0.557686 0.052004
0.188436 0.560620 0.055500
0.247623 0.563434 0.058853
0.305222 0.566172 0.062115
0.361668 0.568856 0.065313
0.417212 0.571497 0.068459
0.472016 0.574102 0.071564
0.526196 0.576678 0.074633
0.579835 0.579228 0.077671
0.632998 0.581755 0.080682
0.689131 0.584496 0.084157
0.754441 0.587891 0.088325
0.802778 0.590403 0.091410
0.838640 0.592267 0.093699
0.865303 0.593652 0.095400
0.885167 0.594685 0.096668
0.061855 0.610317 0.053997
0.131042 0.613606 0.057916
0.192764 0.616541 0.061412
0.251952 0.619354 0.064765
0.309551 0.622093 0.068028
0.365997 0.624776 0.071225
0.421540 0.627417 0.074371
0.476345 0.630023 0.077476
0.530524 0.632598 0.080545
0.584048 0.635193 0.083835
0.637301 0.637960 0.087234
0.693636 0.640888 0.090829
0.758946 0.644283 0.094997
0.807283 0.646795 0.098082
0.843144 0.648659 0.100371
0.869807 0.650044 0.102073
0.889671 0.651077 0.103340
0.066434 0.669473 0.060251
0.135621 0.672763 0.064170
0.197343 0.675697 0.067666
0.256531 0.678511 0.071019
0.314130 0.681249 0.074282
0.370576 0.683933 0.077479
0.426119 0.686573 0.080625
0.480813 0.689235 0.084001
0.535084 0.692056 0.087465
0.588814 0.694848 0.090894
0.642066 0.697616 0.094292
0.698401 0.700544 0.097888
0.763711 0.703938 0.102056
0.812048 0.706450 0.105141
0.847909 0.708314 0.107429
0.874572 0.709700 0.109131
0.894436 0.710732 0.110399
0.071742 0.738055 0.067502
0.140929 0.741344 0.071421
0.202652 0.744279 0.074917
0.261839 0.747092 0.078270
0.319438 0.749831 0.081532
0.375804 0.752650 0.085129
0.431441 0.755542 0.088680
0.486338 0.758395 0.092184
0.540609 0.761215 0.095647
0.594338 0.764008 0.099077
0.647591 0.766776 0.102475
0.703925 0.769703 0.106071
0.769235 0.773098 0.110239
0.817572 0.775610 0.113324
0.853434 0.777474 0.115612
0.880097 0.778859 0.117314
0.899961 0.779892 0.118582
0.075671 0.788813 0.072868
0.144858 0.792102 0.076787
0.206581 0.795037 0.080283
0.265655 0.797899 0.083895
0.323351 0.800898 0.087577
0.379892 0.803837 0.091186
0.435530 0.806728 0.094737
0.490426 0.809581 0.098240
0.544697 0.812402 0.101704
0.598427 0.815194 0.105133
0.651679 0.817962 0.108532
0.708014 0.820890 0.112127
0.773324 0.824284 0.116295
0.821661 0.826796 0.119380
0.857522 0.828660 0.121669
0.884186 0.830046 0.123370
0.904049 0.831078 0.124638
0.078586 0.826471 0.076849
0.147773 0.829760 0.080768
0.209401 0.832793 0.084604
0.268689 0.835874 0.088388
0.326385 0.838873 0.092070
0.382926 0.841812 0.095679
0.438563 0.844703 0.099230
0.493460 0.847556 0.102733
0.547731 0.850377 0.106197
0.601460 0.853169 0.109626
0.654713 0.855937 0.113025
0.711047 0.858865 0.116620
0.776357 0.862259 0.120788
0.824694 0.864771 0.123873
0.860556 0.866635 0.126162
0.887219 0.868021 0.127863
0.907083 0.869053 0.129131
0.080753 0.854470 0.079809
0.149830 0.857815 0.083999
0.211657 0.861028 0.087945
0.270944 0.864109 0.091729
0.328640 0.867108 0.095411
0.385181 0.870047 0.099020
0.440818 0.872938 0.102571
0.495715 0.875791 0.106074
0.549986 0.878612 0.109538
0.603715 0.881404 0.112967
0.656968 0.884172 0.116365
0.713303 0.887100 0.119961
0.778613 0.890494 0.124129
0.826950 0.893006 0.127214
0.862811 0.894870 0.129503
0.889474 0.896256 0.131204
0.909338 0.897288 0.132472
0.082368 0.875328 0.082015
0.151510 0.878850 0.086488
0.213337 0.882063 0.090434
0.272624 0.885144 0.094218
0.330320 0.888143 0.097900
0.386861 0.891081 0.101509
0.442499 0.893973 0.105059
0.497395 0.896826 0.108563
0.551666 0.899647 0.112027
0.605396 0.902439 0.115456
0.658648 0.905207 0.118854
0.714983 0.908135 0.122450
0.780293 0.911529 0.126618
0.828630 0.914041 0.129703
0.864491 0.915905 0.131991
0.891154 0.917291 0.133693
0.911018 0.918323 0.134961
0.016094 0.006254 0.057812
0.085281 0.009543 0.061731
0.147004 0.012478 0.065227
0.206191 0.015292 0.068580
0.263790 0.018030 0.071843
0.320236 0.020714 0.075040
0.375780 0.023354 0.078186
0.430584 0.025960 0.081291
0.484764 0.028536 0.084360
0.538403 0.031086 0.087398
0.591566 0.033613 0.090410
0.647806 0.036287 0.093595
0.713006 0.039387 0.097289
0.761261 0.041681 0.100022
0.797062 0.043383 0.102050
0.823681 0.044648 0.103558
0.843511 0.045591 0.104681
0.021727 0.079029 0.065506
0.090914 0.082318 0.069425
0.152637 0.085253 0.072921
0.211824 0.088067 0.076274
0.269423 0.090805 0.079537
0.325869 0.093489 0.082734
0.381413 0.096129 0.085881
0.436217 0.098735 0.088985
0.490397 0.101311 0.092054
0.544036 0.103861 0.095092
0.597199 0.106388 0.098104
0.653439 0.109062 0.101290
0.718639 0.112162 0.104983
0.766895 0.114456 0.107716
0.802695 0.116158 0.109744
0.829314 0.117423 0.111252
0.849144 0.118366 0.112375
0.026753 0.143953 0.072370
0.095940 0.147242 0.076289
0.157662 0.150177 0.079785
0.216850 0.152991 0.083138
0.274449 0.155729 0.086401
0.330895 0.158412 0.089598
0.386438 0.161053 0.092745
0.441243 0.163659 0.095849
0.495422 0.166234 0.098918
0.549061 0.168784 0.101956
0.602224 0.171312 0.104968
0.658464 0.173986 0.108154
0.723664 0.177085 0.111847
0.771920 0.179380 0.114580
0.807721 0.181082 0.116608
0.834339 0.182347 0.118116
0.854170 0.183290 0.119239
0.031572 0.206210 0.078952
0.100759 0.209499 0.082871
0.162481 0.212434 0.086367
0.221669 0.215248 0.089720
0.279268 0.217986 0.092983
0.335714 0.220670 0.096180
0.391257 0.223310 0.099327
0.446062 0.225916 0.102431
0.500241 0.228491 0.105500
0.553880 0.231042 0.108538
0.607043 0.233569 0.111550
0.663283 0.236243 0.114736
0.728483 0.239343 0.118429
0.776739 0.241637 0.121162
0.812540 0.243339 0.123190
0.839158 0.244604 0.124698
0.858989 0.245547 0.125822
0.036261 0.266796 0.085357
0.105448 0.270086 0.089277
0.167171 0.273020 0.092773
0.226358 0.275834 0.096126
0.283957 0.278572 0.099388
0.340403 0.281256 0.102586
0.395947 0.283896 0.105732
0.450751 0.286502 0.108836
0.504931 0.289078 0.111905
0.558570 0.291628 0.114944
0.611733 0.294155 0.117955
0.667973 0.296829 0.121141
0.733173 0.299929 0.124834
0.781429 0.302223 0.127568
0.817229 0.303925 0.129596
0.843848 0.305190 0.131104
0.863678 0.306133 0.132227
0.040857 0.326170 0.091635
0.110044 0.329459 0.095554
0.171767 0.332393 0.099050
0.230954 0.335207 0.102403
0.288553 0.337945 0.105665
0.344999 0.340629 0.108863
0.400543 0.343270 0.112009
0.455347 0.345875 0.115114
0.509527 0.348451 0.118183
0.563166 0.351001 0.121221
0.616329 0.353529 0.124233
0.672569 0.356202 0.127418
0.737769 0.359302 0.131112
0.786024 0.361596 0.133845
0.821825 0.363298 0.135873
0.848444 0.364564 0.137381
0.868274 0.365506 0.138504
0.045379 0.384594 0.097811
0.114566 0.387883 0.101731
0.176289 0.390818 0.105227
0.235477 0.393631 0.108580
0.293076 0.396370 0.111842
0.349521 0.399053 0.115040
0.405065 0.401694 0.118186
0.459870 0.404299 0.121290
0.514049 0.406875 0.124360
0.567688 0.409425 0.127398
0.620851 0.411953 0.130409
0.677091 0.414627 0.133595
0.742291 0.417726 0.137288
0.790547 0.420020 0.140022
0.826348 0.421722 0.142050
0.852966 0.422988 0.143558
0.872796 0.423931 0.144681
0.049842 0.442241 0.103906
0.119029 0.445530 0.107825
0.180751 0.448464 0.111322
0.239939 0.451278 0.114674
0.297538 0.454016 0.117937
0.353984 0.456700 0.121134
0.409527 0.459341 0.124281
0.464332 0.461946 0.127385
0.518511 0.464522 0.130454
0.572150 0.467072 0.133493
0.625313 0.469600 0.136504
0.681553 0.472273 0.139690
0.746753 0.475373 0.143383
0.795009 0.477667 0.146117
0.830810 0.479369 0.148145
0.857306 0.480659 0.149873
0.877170 0.481692 0.151140
0.054253 0.499230 0.109931
0.123440 0.502519 0.113850
0.185163 0.505454 0.117347
0.244350 0.508267 0.120699
0.301949 0.511006 0.123962
0.358395 0.513689 0.127160
0.413939 0.516330 0.130306
0.468743 0.518935 0.133410
0.522923 0.521511 0.136479
0.576561 0.524061 0.139518
0.629725 0.526589 0.142529
0.685964 0.529263 0.145715
0.751074 0.532380 0.149571
0.799372 0.534880 0.152682
0.835233 0.536743 0.154971
0.861897 0.538129 0.156672
0.881760 0.539162 0.157940
0.058620 0.555651 0.115896
0.127807 0.558940 0.119815
0.189530 0.561874 0.123312
0.248717 0.564688 0.126664
0.306316 0.567427 0.129927
0.362762 0.570110 0.133125
0.418306 0.572751 0.136271
0.473110 0.575356 0.139375
0.527290 0.577932 0.142444
0.580929 0.580482 0.145483
0.634092 0.583010 0.148494
0.690270 0.585870 0.152161
0.755580 0.589264 0.156329
0.803917 0.591776 0.159414
0.839778 0.593640 0.161703
0.866441 0.595026 0.163404
0.886305 0.596058 0.164672
0.062949 0.611571 0.121808
0.132136 0.614860 0.125728
0.193858 0.617795 0.129224
0.253046 0.620609 0.132577
0.310645 0.623347 0.135839
0.367091 0.626030 0.139037
0.422634 0.628671 0.142183
0.477439 0.631277 0.145287
0.531618 0.633852 0.148356
0.585187 0.636566 0.151839
0.638440 0.639334 0.155238
0.694774 0.642262 0.158833
0.760084 0.645656 0.163001
0.808421 0.648168 0.166086
0.844283 0.650032 0.168375
0.870946 0.651418 0.170077
0.890810 0.652450 0.171344
0.067528 0.670727 0.128063
0.136715 0.674017 0.131982
0.198437 0.676951 0.135478
0.257625 0.679765 0.138831
0.315224 0.682503 0.142094
0.371670 0.685187 0.145291
0.427213 0.687828 0.148437
0.481952 0.690608 0.152005
0.536223 0.693429 0.155468
0.589952 0.696221 0.158898
0.643205 0.698989 0.162296
0.699540 0.701917 0.165891
0.764849 0.705311 0.170060
0.813187 0.707823 0.173145
0.849048 0.709687 0.175433
0.875711 0.711073 0.177135
0.895575 0.712105 0.178403
0.072836 0.739309 0.135313
0.142023 0.742598 0.139233
0.203746 0.745533 0.142729
0.262933 0.748346 0.146082
0.320450 0.751101 0.149492
0.376942 0.754023 0.153133
0.432579 0.756915 0.156684
0.487476 0.759768 0.160188
0.541747 0.762589 0.163651
0.595476 0.765381 0.167080
0.648729 0.768149 0.170479
0.705064 0.771077 0.174074
0.770374 0.774471 0.178243
0.818711 0.776983 0.181328
0.854572 0.778847 0.183616
0.881235 0.780233 0.185318
0.901099 0.781265 0.186586
0.076765 0.790067 0.140680
0.145952 0.793357 0.144599
0.207675 0.796291 0.148095
0.266794 0.799273 0.151899
0.324490 0.802271 0.155581
0.381031 0.805210 0.159190
0.436668 0.808101 0.162741
0.491565 0.810955 0.166244
0.545836 0.813775 0.169708
0.599565 0.816568 0.173137
0.652818 0.819335 0.176535
0.709153 0.822263 0.180131
0.774463 0.825657 0.184299
0.822800 0.828170 0.187384
0.858661 0.830033 0.189673
0.885324 0.831419 0.191374
0.905188 0.832452 0.192642
0.079680 0.827725 0.144661
0.148867 0.831014 0.148580
0.210540 0.834166 0.152608
0.269827 0.837248 0.156392
0.327523 0.840246 0.160074
0.384064 0.843185 0.163683
0.439701 0.846076 0.167234
0.494598 0.848930 0.170737
0.548869 0.851750 0.174201
0.602598 0.854543 0.177630
0.655851 0.857310 0.181029
0.712186 0.860238 0.184624
0.777496 0.863632 0.188792
0.825833 0.866145 0.191877
0.861694 0.868008 0.194166
0.888357 0.869394 0.195867
0.908221 0.870427 0.197135
0.081847 0.855724 0.147621
0.150968 0.859188 0.152003
0.212795 0.862401 0.155949
0.272082 0.865483 0.159733
0.329778 0.868481 0.163415
0.386319 0.871420 0.167024
0.441957 0.874311 0.170575
0.496854 0.877165 0.174078
0.551124 0.879985 0.177542
0.604854 0.882778 0.180971
0.658107 0.885545 0.184369
0.714441 0.888473 0.187965
0.779751 0.891867 0.192133
0.828088 0.894380 0.195218
0.863949 0.896243 0.197506
0.890613 0.897629 0.199208
0.910477 0.898662 0.200476
0.083345 0.876621 0.150069
0.152649 0.880223 0.154492
0.214475 0.883436 0.158438
0.273763 0.886517 0.162222
0.331459 0.889516 0.165904
0.388000 0.892455 0.169513
0.443637 0.895346 0.173063
0.498534 0.898199 0.176567
0.552805 0.901020 0.180031
0.606534 0.903812 0.183460
0.659787 0.906580 0.186858
0.716121 0.909508 0.190454
0.781431 0.912902 0.194622
0.829769 0.915414 0.197707
0.865630 0.917278 0.199995
0.892293 0.918664 0.201697
0.912157 0.919696 0.202965
0.017070 0.007373 0.118308
0.086257 0.010662 0.122227
0.147980 0.013597 0.125723
0.207167 0.016410 0.129076
0.264766 0.019149 0.132339
0.321212 0.021832 0.135536
0.376756 0.024473 0.138682
0.431560 0.027079 0.141787
0.485740 0.029654 0.144856
0.539379 0.032204 0.147894
0.592542 0.034732 0.150906
0.648782 0.037406 0.154091
0.713982 0.040505 0.157785
0.762237 0.042800 0.160518
0.798038 0.044502 0.162546
0.824656 0.045767 0.164054
0.844487 0.046710 0.165177
0.022703 0.080148 0.126002
0.091890 0.083437 0.129921
0.153613 0.086372 0.133417
0.212800 0.089186 0.136770
0.270399 0.091924 0.140033
0.326845 0.094607 0.143230
0.382389 0.097248 0.146376
0.437193 0.099854 0.149481
0.491373 0.102429 0.152550
0.545012 0.104980 0.155588
0.598175 0.107507 0.158600
0.654415 0.110181 0.161786
0.719615 0.113280 0.165479
0.767871 0.115575 0.168212
0.803671 0.117277 0.170240
0.830290 0.118542 0.171748
0.850120 0.119485 0.172871
0.027729 0.145072 0.132866
0.096916 0.148361 0.136785
0.158638 0.151295 0.140281
0.217826 0.154109 0.143634
0.275425 0.156848 0.146897
0.331871 0.159531 0.150094
0.387414 0.162172 0.153240
0.442219 0.164777 0.156345
0.496398 0.167353 0.159414
0.550037 0.169903 0.162452
0.603200 0.172431 0.165464
0.659440 0.175105 0.168650
0.724640 0.178204 0.172343
0.772896 0.180498 0.175076
0.808697 0.182200 0.177104
0.835315 0.183466 0.178612
0.855146 0.184409 0.179735
0.032548 0.207329 0.139448
0.101735 0.210618 0.143367
0.163457 0.213553 0.146863
0.222645 0.216366 0.150216
0.280244 0.219105 0.153479
0.336690 0.221788 0.156676
0.392233 0.224429 0.159823
0.447038 0.227034 0.162927
0.501217 0.229610 0.165996
0.554856 0.232160 0.169034
0.608019 0.234688 0.172046
0.664259 0.237362 0.175232
0.729459 0.240461 0.178925
0.777715 0.242755 0.181658
0.813516 0.244458 0.183686
0.840134 0.245723 0.185194
0.859965 0.246666 0.186317
0.037237 0.267915 0.145853
0.106424 0.271204 0.149772
0.168147 0.274139 0.153269
0.227334 0.276953 0.156622
0.284933 0.279691 0.159884
0.341379 0.282375 0.163082
0.396923 0.285015 0.166228
0.451727 0.287621 0.169332
0.505907 0.290196 0.172401
0.559546 0.292747 0.175440
0.612709 0.295274 0.178451
0.668949 0.297948 0.181637
0.734149 0.301048 0.185330
0.782405 0.303342 0.188064
0.818205 0.305044 0.190092
0.844824 0.306309 0.191600
0.864654 0.307252 0.192723
0.041833 0.327288 0.152131
0.111020 0.330578 0.156050
0.172743 0.333512 0.159546
0.231930 0.336326 0.162899
0.289529 0.339064 0.166161
0.345975 0.341748 0.169359
0.401519 0.344388 0.172505
0.456323 0.346994 0.175610
0.510503 0.349570 0.178679
0.564142 0.352120 0.181717
0.617305 0.354647 0.184728
0.673545 0.357321 0.187914
0.738745 0.360421 0.191608
0.787000 0.362715 0.194341
0.822801 0.364417 0.196369
0.849420 0.365682 0.197877
0.869250 0.366625 0.199000
0.046355 0.385713 0.158307
0.115542 0.389002 0.162227
0.177265 0.391936 0.165723
0.236453 0.394750 0.169076
0.294052 0.397489 0.172338
0.350497 0.400172 0.175536
0.406041 0.402813 0.178682
0.460846 0.405418 0.181786
0.515025 0.407994 0.184855
0.568664 0.410544 0.187894
0.621827 0.413072 0.190905
0.678067 0.415745 0.194091
0.743267 0.418845 0.197784
0.791523 0.421139 0.200518
0.827324 0.422841 0.202546
0.853942 0.424107 0.204054
0.873772 0.425050 0.205177
0.050818 0.443359 0.164402
0.120005 0.446649 0.168321
0.181727 0.449583 0.171818
0.240915 0.452397 0.175170
0.298514 0.455135 0.178433
0.354960 0.457819 0.181630
0.410503 0.460459 0.184777
0.465308 0.463065 0.187881
0.519487 0.465641 0.190950
0.573126 0.468191 0.193989
0.626289 0.470718 0.197000
0.682529 0.473392 0.200186
0.747729 0.476492 0.203879
0.795985 0.478786 0.206613
0.831686 0.480508 0.208820
0.858322 0.481884 0.210540
0.878186 0.482917 0.211808
0.055229 0.500349 0.170427
0.124416 0.503638 0.174346
0.186139 0.506572 0.177843
0.245326 0.509386 0.181195
0.302925 0.512125 0.184458
0.359371 0.514808 0.187656
0.414915 0.517449 0.190802
0.469719 0.520054 0.193906
0.523899 0.522630 0.196975
0.577537 0.525180 0.200014
0.630701 0.527708 0.203025
0.686940 0.530381 0.206211
0.752051 0.533593 0.210264
0.800388 0.536105 0.213349
0.836249 0.537969 0.215638
0.862912 0.539354 0.217340
0.882776 0.540387 0.218607
0.059596 0.556769 0.176392
0.128783 0.560059 0.180311
0.190506 0.562993 0.183808
0.249693 0.565807 0.187160
0.307292 0.568545 0.190423
0.363738 0.571229 0.193621
0.419282 0.573870 0.196767
0.474086 0.576475 0.199871
0.528266 0.579051 0.202940
0.581905 0.581601 0.205979
0.634951 0.584167 0.209233
0.691286 0.587095 0.212828
0.756595 0.590489 0.216996
0.804933 0.593001 0.220081
0.840794 0.594865 0.222370
0.867457 0.596251 0.224072
0.887321 0.597283 0.225339
0.063925 0.612690 0.182304
0.133112 0.615979 0.186224
0.194834 0.618913 0.189720
0.254022 0.621727 0.193073
0.311621 0.624466 0.196335
0.368067 0.627149 0.199533
0.423610 0.629790 0.202679
0.478415 0.632395 0.205783
0.532473 0.634999 0.209077
0.586203 0.637791 0.212506
0.639455 0.640559 0.215905
0.695790 0.643487 0.219500
0.761100 0.646881 0.223669
0.809437 0.649393 0.226754
0.845298 0.651257 0.229042
0.871961 0.652643 0.230744
0.891825 0.653675 0.232012
0.068504 0.671846 0.188559
0.137691 0.675136 0.192478
0.199413 0.678070 0.195974
0.258601 0.680884 0.199327
0.316200 0.683622 0.202590
0.372646 0.686306 0.205787
0.428071 0.688980 0.209169
0.482968 0.691833 0.212672
0.537238 0.694654 0.216136
0.590968 0.697447 0.219565
0.644221 0.700214 0.222964
0.700555 0.703142 0.226559
0.765865 0.706536 0.230727
0.814202 0.709049 0.233812
0.850063 0.710912 0.236101
0.876727 0.712298 0.237802
0.896591 0.713330 0.239070
0.073812 0.740428 0.195809
0.142999 0.743717 0.199728
0.204722 0.746651 0.203225
0.263909 0.749465 0.206578
0.321417 0.752310 0.210192
0.377958 0.755249 0.213801
0.433595 0.758140 0.217352
0.488492 0.760993 0.220855
0.542763 0.763814 0.224319
0.596492 0.766606 0.227748
0.649745 0.769374 0.231146
0.706080 0.772302 0.234742
0.771389 0.775696 0.238910
0.819727 0.778208 0.241995
0.855588 0.780072 0.244284
0.882251 0.781458 0.245985
0.902115 0.782490 0.247253
0.077741 0.791186 0.201176
0.146928 0.794475 0.205095
0.208558 0.797428 0.208759
0.267809 0.800498 0.212566
0.325505 0.803496 0.216249
0.382046 0.806435 0.219857
0.437684 0.809327 0.223408
0.492581 0.812180 0.226911
0.546851 0.815000 0.230375
0.600581 0.817793 0.233804
0.653834 0.820560 0.237203
0.710168 0.823488 0.240798
0.775478 0.826883 0.244966
0.823815 0.829395 0.248051
0.859676 0.831259 0.250340
0.886340 0.832644 0.252042
0.906204 0.833677 0.253309
0.080656 0.828844 0.205157
0.149729 0.832178 0.209330
0.211555 0.835392 0.213276
0.270843 0.838473 0.217060
0.328539 0.841471 0.220742
0.385080 0.844410 0.224350
0.440717 0.847302 0.227901
0.495614 0.850155 0.231405
0.549885 0.852975 0.234868
0.603614 0.855768 0.238297
0.656867 0.858535 0.241696
0.713202 0.861463 0.245291
0.778512 0.864858 0.249459
0.826849 0.867370 0.252544
0.862710 0.869234 0.254833
0.889373 0.870619 0.256535
0.909237 0.871652 0.257803
0.082792 0.856849 0.208173
0.151984 0.860413 0.212671
0.213811 0.863626 0.216617
0.273098 0.866708 0.220400
0.330794 0.869706 0.224083
0.387335 0.872645 0.227691
0.442972 0.875537 0.231242
0.497869 0.878390 0.234745
0.552140 0.881210 0.238209
0.605869 0.884003 0.241638
0.659122 0.886770 0.245037
0.715457 0.889698 0.248632
0.780767 0.893093 0.252800
0.829104 0.895605 0.255885
0.864965 0.897469 0.258174
0.891628 0.898854 0.259876
0.911492 0.899887 0.261143
0.084361 0.877846 0.210736
0.153664 0.881448 0.215160
0.215491 0.884661 0.219105
0.274778 0.887743 0.222889
0.332474 0.890741 0.226571
0.389015 0.893680 0.230180
0.444653 0.896571 0.233731
0.499550 0.899425 0.237234
0.553820 0.902245 0.240698
0.607550 0.905038 0.244127
0.660803 0.907805 0.247526
0.717137 0.910733 0.251121
0.782447 0.914127 0.255289
0.830784 0.916640 0.258374
0.866645 0.918503 0.260663
0.893309 0.919889 0.262364
0.913173 0.920921 0.263632
0.018006 0.008446 0.176319
0.087193 0.011735 0.180238
0.148916 0.014669 0.183734
0.208103 0.017483 0.187087
0.265702 0.020222 0.190350
0.322148 0.022905 0.193547
0.377692 0.025546 0.196694
0.432496 0.028151 0.199798
0.486676 0.030727 0.202867
0.540314 0.033277 0.205905
0.593478 0.035805 0.208917
0.649717 0.038478 0.212103
0.714917 0.041578 0.215796
0.763173 0.043872 0.218529
0.798974 0.045574 0.220557
0.825592 0.046840 0.222065
0.845423 0.047783 0.223188
0.023639 0.081221 0.184013
