app/src/main/assets/lut/fuji_astia.cube
TITLE "Filmic Astia"
LUT_3D_SIZE 9
DOMAIN_MIN 0.0 0.0 0.0
DOMAIN_MAX 1.0 1.0 1.0
0.015000 0.005000 0.000000
0.145910 0.011224 0.000000
0.262696 0.016776 0.004031
0.374686 0.022100 0.010375
0.483670 0.027281 0.016548
0.590472 0.032359 0.022598
0.711912 0.038132 0.029477
0.795968 0.042129 0.034238
0.842417 0.044337 0.036870
0.025659 0.142699 0.004558
0.156568 0.148923 0.011974
0.273355 0.154475 0.018589
0.385344 0.159799 0.024933
0.494328 0.164980 0.031106
0.601130 0.170058 0.037156
0.722570 0.175831 0.044035
0.806627 0.179828 0.048796
0.853076 0.182036 0.051428
0.035167 0.265542 0.017546
0.166077 0.271766 0.024961
0.282863 0.277318 0.031576
0.394853 0.282642 0.037920
0.503837 0.287824 0.044094
0.610639 0.292901 0.050144
0.732079 0.298675 0.057023
0.816135 0.302671 0.061784
0.862584 0.304879 0.064415
0.044285 0.383340 0.030000
0.175195 0.389563 0.037415
0.291982 0.395116 0.044031
0.403971 0.400440 0.050374
0.512955 0.405621 0.056548
0.619757 0.410699 0.062598
0.741197 0.416472 0.069477
0.825254 0.420468 0.074238
0.871702 0.422677 0.076869
0.053159 0.497976 0.042119
0.184069 0.504199 0.049535
0.300855 0.509752 0.056150
0.412845 0.515076 0.062494
0.521829 0.520257 0.068668
0.628631 0.525335 0.074717
0.750070 0.531108 0.081596
0.834095 0.535370 0.086967
0.880622 0.537788 0.089936
0.061855 0.610317 0.053997
0.192764 0.616541 0.061412
0.309551 0.622093 0.068028
0.421540 0.627417 0.074371
0.530524 0.632598 0.080545
0.637301 0.637960 0.087234
0.758946 0.644283 0.094997
0.843144 0.648659 0.100371
0.889671 0.651077 0.103340
0.071742 0.738055 0.067502
0.202652 0.744279 0.074917
0.319438 0.749831 0.081532
0.431441 0.755542 0.088680
0.540609 0.761215 0.095647
0.647591 0.766776 0.102475
0.769235 0.773098 0.110239
0.853434 0.777474 0.115612
0.899961 0.779892 0.118582
0.078586 0.826471 0.076849
0.209401 0.832793 0.084604
0.326385 0.838873 0.092070
0.438563 0.844703 0.099230
0.547731 0.850377 0.106197
0.654713 0.855937 0.113025
0.776357 0.862259 0.120788
0.860556 0.866635 0.126162
0.907083 0.869053 0.129131
0.082368 0.875328 0.082015
0.213337 0.882063 0.090434
0.330320 0.888143 0.097900
0.442499 0.893973 0.105059
0.551666 0.899647 0.112027
0.658648 0.905207 0.118854
0.780293 0.911529 0.126618
0.864491 0.915905 0.131991
0.911018 0.918323 0.134961
0.017070 0.007373 0.118308
0.147980 0.013597 0.125723
0.264766 0.019149 0.132339
0.376756 0.024473 0.138682
0.485740 0.029654 0.144856
0.592542 0.034732 0.150906
0.713982 0.040505 0.157785
0.798038 0.044502 0.162546
0.844487 0.046710 0.165177
0.027729 0.145072 0.132866
0.158638 0.151295 0.140281
0.275425 0.156848 0.146897
0.387414 0.162172 0.153240
0.496398 0.167353 0.159414
0.603200 0.172431 0.165464
0.724640 0.178204 0.172343
0.808697 0.182200 0.177104
0.855146 0.184409 0.179735
0.037237 0.267915 0.145853
0.168147 0.274139 0.153269
0.284933 0.279691 0.159884
0.396923 0.285015 0.166228
0.505907 0.290196 0.172401
0.612709 0.295274 0.178451
0.734149 0.301048 0.185330
0.818205 0.305044 0.190092
0.864654 0.307252 0.192723
0.046355 0.385713 0.158307
0.177265 0.391936 0.165723
0.294052 0.397489 0.172338
0.406041 0.402813 0.178682
0.515025 0.407994 0.184855
0.621827 0.413072 0.190905
0.743267 0.418845 0.197784
0.827324 0.422841 0.202546
0.873772 0.425050 0.205177
0.055229 0.500349 0.170427
0.186139 0.506572 0.177843
0.302925 0.512125 0.184458
0.414915 0.517449 0.190802
0.523899 0.522630 0.196975
0.630701 0.527708 0.203025
0.752051 0.533593 0.210264
0.836249 0.537969 0.215638
0.882776 0.540387 0.218607
0.063925 0.612690 0.182304
0.194834 0.618913 0.189720
0.311621 0.624466 0.196335
0.423610 0.629790 0.202679
0.532473 0.634999 0.209077
0.639455 0.640559 0.215905
0.761100 0.646881 0.223669
0.845298 0.651257 0.229042
0.891825 0.653675 0.232012
0.073812 0.740428 0.195809
0.204722 0.746651 0.203225
0.321417 0.752310 0.210192
0.433595 0.758140 0.217352
0.542763 0.763814 0.224319
0.649745 0.769374 0.231146
0.771389 0.775696 0.238910
0.855588 0.780072 0.244284
0.902115 0.782490 0.247253
0.080656 0.828844 0.205157
0.211555 0.835392 0.213276
0.328539 0.841471 0.220742
0.440717 0.847302 0.227901
0.549885 0.852975 0.234868
0.656867 0.858535 0.241696
0.778512 0.864858 0.249459
0.862710 0.869234 0.254833
0.909237 0.871652 0.257803
0.084361 0.877846 0.210736
0.215491 0.884661 0.219105
0.332474 0.890741 0.226571
0.444653 0.896571 0.233731
0.553820 0.902245 0.240698
0.660803 0.907805 0.247526
0.782447 0.914127 0.255289
0.866645 0.918503 0.260663
0.913173 0.920921 0.263632
0.018917 0.009490 0.232773
0.149826 0.015714 0.240189
0.266613 0.021266 0.246804
0.378602 0.026590 0.253148
0.487586 0.031771 0.259321
0.594388 0.036849 0.265371
0.715828 0.042622 0.272250
0.799885 0.046618 0.277011
0.846334 0.048827 0.279643
0.029575 0.147189 0.247331
0.160485 0.153412 0.254747
0.277271 0.158965 0.261362
0.389261 0.164289 0.267706
0.498245 0.169470 0.273879
0.605047 0.174548 0.279929
0.726487 0.180321 0.286808
0.810543 0.184317 0.291570
0.856992 0.186526 0.294201
0.039084 0.270032 0.260319
0.169994 0.276256 0.267734
0.286780 0.281808 0.274350
0.398770 0.287132 0.280693
0.507754 0.292313 0.286867
0.614556 0.297391 0.292917
0.735996 0.303164 0.299796
0.820052 0.307161 0.304557
0.866501 0.309369 0.307188
0.048202 0.387830 0.272773
0.179112 0.394053 0.280188
0.295898 0.399605 0.286804
0.407888 0.404930 0.293147
0.516872 0.410111 0.299321
0.623674 0.415189 0.305371
0.745114 0.420962 0.312250
0.829170 0.424958 0.317011
0.875619 0.427166 0.319642
0.057076 0.502466 0.284893
0.187985 0.508689 0.292308
0.304772 0.514242 0.298923
0.416761 0.519566 0.305267
0.525745 0.524747 0.311441
0.632547 0.529825 0.317490
0.753972 0.535911 0.325054
0.838171 0.540287 0.330428
0.884698 0.542705 0.333397
0.065771 0.614807 0.296770
0.196681 0.621030 0.304185
0.313467 0.626583 0.310801
0.425457 0.631907 0.317144
0.534395 0.637317 0.323867
0.641377 0.642877 0.330695
0.763022 0.649199 0.338458
0.847220 0.653575 0.343832
0.893747 0.655993 0.346801
0.075659 0.742545 0.310275
0.206569 0.748768 0.317690
0.323338 0.754628 0.324982
0.435517 0.760458 0.332141
0.544684 0.766132 0.339108
0.651667 0.771692 0.345936
0.773311 0.778014 0.353700
0.857509 0.782390 0.359073
0.904037 0.784808 0.362043
0.082503 0.830961 0.319622
0.213477 0.837710 0.328065
0.330460 0.843790 0.335531
0.442639 0.849620 0.342691
0.551807 0.855293 0.349658
0.658789 0.860854 0.356486
0.780433 0.867176 0.364249
0.864632 0.871552 0.369623
0.911159 0.873970 0.372592
0.086282 0.880164 0.325526
0.217413 0.886979 0.333895
0.334396 0.893059 0.341361
0.446574 0.898889 0.348520
0.555742 0.904563 0.355487
0.662724 0.910123 0.362315
0.784369 0.916445 0.370079
0.868567 0.920821 0.375452
0.915094 0.923240 0.378422
0.020687 0.011520 0.342537
0.151597 0.017743 0.349952
0.268384 0.023296 0.356568
0.380373 0.028620 0.362911
0.489357 0.033801 0.369085
0.596159 0.038879 0.375135
0.717599 0.044652 0.382014
0.801656 0.048648 0.386775
0.848104 0.050857 0.389406
0.031346 0.149219 0.357095
0.162256 0.155442 0.364510
0.279042 0.160995 0.371126
0.391032 0.166319 0.377470
0.500016 0.171500 0.383643
0.606818 0.176578 0.389693
0.728258 0.182351 0.396572
0.812314 0.186347 0.401333
0.858763 0.188556 0.403964
0.040855 0.272062 0.370082
0.171764 0.278286 0.377498
0.288551 0.283838 0.384113
0.400540 0.289162 0.390457
0.509524 0.294343 0.396630
0.616327 0.299421 0.402680
0.737766 0.305194 0.409559
0.821823 0.309191 0.414321
0.868272 0.311399 0.416952
0.049973 0.389859 0.382536
0.180883 0.396083 0.389952
0.297669 0.401635 0.396567
0.409659 0.406960 0.402911
0.518643 0.412141 0.409085
0.625445 0.417218 0.415134
0.746885 0.422992 0.422013
0.830941 0.426988 0.426775
0.877307 0.429325 0.429794
0.058846 0.504496 0.394656
0.189756 0.510719 0.402072
0.306542 0.516271 0.408687
0.418532 0.521596 0.415031
0.527516 0.526777 0.421204
0.634307 0.531857 0.427274
0.755815 0.538134 0.435129
0.840013 0.542509 0.440502
0.886541 0.544928 0.443472
0.067542 0.616837 0.406533
0.198452 0.623060 0.413949
0.315238 0.628613 0.420564
0.427228 0.633937 0.426908
0.536238 0.639540 0.433942
0.643220 0.645100 0.440769
0.764865 0.651422 0.448533
0.849063 0.655798 0.453907
0.895590 0.658216 0.456876
0.077430 0.744575 0.420038
0.208302 0.750806 0.427521
0.325181 0.756851 0.435057
0.437360 0.762681 0.442216
0.546527 0.768355 0.449183
0.653509 0.773915 0.456011
0.775154 0.780237 0.463774
0.859352 0.784613 0.469148
0.905879 0.787031 0.472117
0.084190 0.833117 0.429771
0.215320 0.839932 0.438140
0.332303 0.846012 0.445606
0.444482 0.851843 0.452765
0.553649 0.857516 0.459733
0.660632 0.863076 0.466560
0.782276 0.869399 0.474324
0.866474 0.873775 0.479697
0.913001 0.876193 0.482667
0.088125 0.882387 0.435601
0.219255 0.889202 0.443970
0.336239 0.895282 0.451436
0.448417 0.901112 0.458595
0.557585 0.906786 0.465562
0.664567 0.912346 0.472390
0.786212 0.918668 0.480153
0.870410 0.923044 0.485527
0.916937 0.925462 0.488496
0.022411 0.013495 0.449355
0.153320 0.019719 0.456770
0.270107 0.025271 0.463386
0.382096 0.030595 0.469729
0.491080 0.035777 0.475903
0.597883 0.040854 0.481953
0.719322 0.046628 0.488832
0.803379 0.050624 0.493593
0.849828 0.052832 0.496224
0.033069 0.151194 0.463913
0.163979 0.157418 0.471328
0.280765 0.162970 0.477944
0.392755 0.168294 0.484287
0.501739 0.173476 0.490461
0.608541 0.178553 0.496511
0.729981 0.184327 0.503390
0.814038 0.188323 0.508151
0.860486 0.190531 0.510782
0.042578 0.274037 0.476900
0.173488 0.280261 0.484316
0.290274 0.285813 0.490931
0.402264 0.291138 0.497275
0.511248 0.296319 0.503448
0.618050 0.301396 0.509498
0.739490 0.307170 0.516377
0.823546 0.311166 0.521139
0.869995 0.313374 0.523770
0.051696 0.391835 0.489354
0.182606 0.398059 0.496770
0.299392 0.403611 0.503385
0.411382 0.408935 0.509729
0.520366 0.414116 0.515902
0.627168 0.419194 0.521952
0.748608 0.424967 0.528831
0.832573 0.429070 0.533945
0.879100 0.431488 0.536914
0.060570 0.506471 0.501474
0.191479 0.512695 0.508890
0.308266 0.518247 0.515505
0.420255 0.523571 0.521849
0.529239 0.528752 0.528022
0.635964 0.533975 0.534486
0.757609 0.540297 0.542249
0.841807 0.544673 0.547623
0.888334 0.547091 0.550592
0.069265 0.618812 0.513351
0.200175 0.625036 0.520767
0.316962 0.630588 0.527382
0.428863 0.636029 0.534095
0.538031 0.641703 0.541062
0.645013 0.647263 0.547890
0.766658 0.653585 0.555653
0.850856 0.657961 0.561027
0.897383 0.660379 0.563996
0.079153 0.746550 0.526856
0.209991 0.752934 0.534711
0.326975 0.759014 0.542177
0.439153 0.764844 0.549336
0.548321 0.770518 0.556304
0.655303 0.776078 0.563131
0.776947 0.782400 0.570895
0.861146 0.786776 0.576268
0.907673 0.789194 0.579238
0.085983 0.835281 0.536892
0.217113 0.842096 0.545261
0.334097 0.848176 0.552727
0.446275 0.854006 0.559886
0.555443 0.859679 0.566853
0.662425 0.865240 0.573681
0.784069 0.871562 0.581444
0.868268 0.875938 0.586818
0.914795 0.878356 0.589787
0.089918 0.884550 0.542721
0.221049 0.891365 0.551090
0.338032 0.897445 0.558556
0.450211 0.903276 0.565715
0.559378 0.908949 0.572683
0.666360 0.914509 0.579510
0.788005 0.920832 0.587274
0.872203 0.925208 0.592647
0.918730 0.927626 0.595617
0.024100 0.015431 0.554034
0.155009 0.021655 0.561450
0.271796 0.027207 0.568065
0.383785 0.032531 0.574409
0.492769 0.037713 0.580582
0.599571 0.042790 0.586632
0.721011 0.048564 0.593511
0.805068 0.052560 0.598272
0.851517 0.054768 0.600904
0.034758 0.153130 0.568592
0.165668 0.159354 0.576008
0.282454 0.164906 0.582623
0.394444 0.170230 0.588967
0.503428 0.175411 0.595140
0.610230 0.180489 0.601190
0.731670 0.186263 0.608069
0.815726 0.190259 0.612831
0.862175 0.192467 0.615462
0.044267 0.275973 0.581580
0.175176 0.282197 0.588995
0.291963 0.287749 0.595611
0.403953 0.293073 0.601954
0.512936 0.298255 0.608128
0.619739 0.303332 0.614178
0.741178 0.309106 0.621057
0.825235 0.313102 0.625818
0.871684 0.315310 0.628449
0.053385 0.393771 0.594034
0.184295 0.399995 0.601449
0.301081 0.405547 0.608065
0.413071 0.410871 0.614408
0.522055 0.416052 0.620582
0.628857 0.421130 0.626632
0.750297 0.426903 0.633511
0.834330 0.431190 0.638921
0.880857 0.433608 0.641890
0.062258 0.508407 0.606154
0.193168 0.514631 0.613569
0.309955 0.520183 0.620184
0.421944 0.525507 0.626528
0.530928 0.530688 0.632702
0.637721 0.536094 0.639462
0.759366 0.542417 0.647225
0.843564 0.546793 0.652599
0.890091 0.549211 0.655568
0.070954 0.620748 0.618031
0.201864 0.626972 0.625446
0.318650 0.632524 0.632062
0.430621 0.638149 0.639071
0.539789 0.643823 0.646038
0.646771 0.649383 0.652866
0.768415 0.655705 0.660629
0.852614 0.660081 0.666003
0.899141 0.662499 0.668972
0.080842 0.748486 0.631536
0.211749 0.755054 0.639687
0.328732 0.761134 0.647153
0.440910 0.766964 0.654312
0.550078 0.772638 0.661280
0.657060 0.778198 0.668107
0.778705 0.784520 0.675871
0.862903 0.788896 0.681244
0.909430 0.791314 0.684214
0.087740 0.837400 0.641868
0.218871 0.844216 0.650237
0.335854 0.850296 0.657703
0.448032 0.856126 0.664862
0.557200 0.861799 0.671829
0.664182 0.867360 0.678657
0.785827 0.873682 0.686420
0.870025 0.878058 0.691794
0.916552 0.880476 0.694763
0.091676 0.886670 0.647697
0.222806 0.893485 0.656066
0.339790 0.899565 0.663532
0.451968 0.905395 0.670691
0.561136 0.911069 0.677659
0.668118 0.916629 0.684486
0.789762 0.922951 0.692250
0.873961 0.927327 0.697623
0.920488 0.929746 0.700593
0.026020 0.017632 0.673060
0.156929 0.023856 0.680476
0.273716 0.029408 0.687091
0.385706 0.034733 0.693435
0.494689 0.039914 0.699608
0.601492 0.044991 0.705658
0.722931 0.050765 0.712537
0.806988 0.054761 0.717299
0.853437 0.056969 0.719930
0.036678 0.155331 0.687618
0.167588 0.161555 0.695034
0.284375 0.167107 0.701649
0.396364 0.172431 0.707993
0.505348 0.177613 0.714166
0.612150 0.182690 0.720216
0.733590 0.188464 0.727095
0.817647 0.192460 0.731857
0.864095 0.194668 0.734488
0.046187 0.278175 0.700606
0.177097 0.284398 0.708021
0.293883 0.289951 0.714637
0.405873 0.295275 0.720980
0.514857 0.300456 0.727154
0.621659 0.305534 0.733204
0.743099 0.311307 0.740083
0.827155 0.315303 0.744844
0.873604 0.317511 0.747475
0.055305 0.395972 0.713060
0.186215 0.402196 0.720475
0.303001 0.407748 0.727091
0.414991 0.413072 0.733435
0.523975 0.418254 0.739608
0.630777 0.423331 0.745658
0.752130 0.429224 0.752910
0.836328 0.433600 0.758284
0.882856 0.436018 0.761253
0.064179 0.510608 0.725180
0.195088 0.516832 0.732595
0.311875 0.522384 0.739211
0.423864 0.527708 0.745554
0.532738 0.532945 0.751997
0.639720 0.538505 0.758825
0.761364 0.544827 0.766589
0.845563 0.549203 0.771962
0.892090 0.551621 0.774932
0.072874 0.622949 0.737057
0.203784 0.629173 0.744472
0.320482 0.634743 0.751248
0.432619 0.640560 0.758434
0.541787 0.646233 0.765402
0.648769 0.651793 0.772229
0.770414 0.658116 0.779993
0.854612 0.662492 0.785366
0.901139 0.664910 0.788336
0.082742 0.750691 0.750598
0.213747 0.757465 0.759050
0.330730 0.763545 0.766516
0.442909 0.769375 0.773676
0.552076 0.775048 0.780643
0.659059 0.780609 0.787471
0.780703 0.786931 0.795234
0.864901 0.791307 0.800608
0.911429 0.793725 0.803577
0.089739 0.839811 0.761231
0.220869 0.846626 0.769600
0.337852 0.852706 0.777066
0.450031 0.858536 0.784225
0.559198 0.864210 0.791192
0.666181 0.869770 0.798020
0.787825 0.876092 0.805784
0.872023 0.880468 0.811157
0.918551 0.882886 0.814127
0.093674 0.889081 0.767061
0.224805 0.895896 0.775430
0.341788 0.901976 0.782896
0.453966 0.907806 0.790055
0.563134 0.913480 0.797022
0.670116 0.919040 0.803850
0.791761 0.925362 0.811613
0.875959 0.929738 0.816987
0.922486 0.932156 0.819956
0.027349 0.019156 0.755446
0.158259 0.025380 0.762862
0.275045 0.030932 0.769477
0.387035 0.036256 0.775821
0.496019 0.041437 0.781994
0.602821 0.046515 0.788044
0.724261 0.052289 0.794923
0.808317 0.056285 0.799685
0.854766 0.058493 0.802316
0.038008 0.156855 0.770004
0.168917 0.163079 0.777420
0.285704 0.168631 0.784035
0.397693 0.173955 0.790379
0.506677 0.179136 0.796552
0.613479 0.184214 0.802602
0.734919 0.189987 0.809481
0.818976 0.193984 0.814243
0.865425 0.196192 0.816874
0.047516 0.279698 0.782992
0.178426 0.285922 0.790407
0.295212 0.291474 0.797023
0.407202 0.296798 0.803366
0.516186 0.301980 0.809540
0.622988 0.307057 0.815590
0.744428 0.312831 0.822469
0.828484 0.316827 0.827230
0.874933 0.319035 0.829861
0.056634 0.397496 0.795446
0.187544 0.403719 0.802861
0.304331 0.409272 0.809477
0.416320 0.414596 0.815820
0.525304 0.419777 0.821994
0.632106 0.424855 0.828044
0.753513 0.430893 0.835530
0.837712 0.435269 0.840903
0.884239 0.437687 0.843873
0.065508 0.512132 0.807566
0.196417 0.518356 0.814981
0.313204 0.523908 0.821596
0.425194 0.529232 0.827940
0.534121 0.534613 0.834617
0.641103 0.540173 0.841444
0.762747 0.546496 0.849208
0.846946 0.550872 0.854581
0.893473 0.553290 0.857551
0.074204 0.624473 0.819443
0.205113 0.630697 0.826858
0.321824 0.636398 0.833894
0.434002 0.642228 0.841054
0.543170 0.647902 0.848021
0.650152 0.653462 0.854849
0.771797 0.659784 0.862612
0.855995 0.664160 0.867986
0.902522 0.666578 0.870955
0.084000 0.752318 0.833301
0.215130 0.759133 0.841670
0.332113 0.765213 0.849136
0.444292 0.771043 0.856295
0.553460 0.776717 0.863262
0.660442 0.782277 0.870090
0.782086 0.788599 0.877853
0.866285 0.792975 0.883227
0.912812 0.795393 0.886196
0.091122 0.841479 0.843850
0.222252 0.848295 0.852219
0.339236 0.854374 0.859685
0.451414 0.860205 0.866845
0.560582 0.865878 0.873812
0.667564 0.871438 0.880639
0.789208 0.877761 0.888403
0.873407 0.882137 0.893777
0.919934 0.884555 0.896746
0.095057 0.890749 0.849680
0.226188 0.897564 0.858049
0.343171 0.903644 0.865515
0.455349 0.909474 0.872674
0.564517 0.915148 0.879641
0.671499 0.920708 0.886469
0.793144 0.927030 0.894233
0.877342 0.931406 0.899606
0.923869 0.933824 0.902576
0.028083 0.019998 0.800972
0.158993 0.026222 0.808387
0.275780 0.031774 0.815003
0.387769 0.037098 0.821346
0.496753 0.042279 0.827520
0.603555 0.047357 0.833570
0.724995 0.053130 0.840449
0.809052 0.057127 0.845210
0.855500 0.059335 0.847841
0.038742 0.157697 0.815530
0.169652 0.163921 0.822945
0.286438 0.169473 0.829561
0.398428 0.174797 0.835904
0.507412 0.179978 0.842078
0.614214 0.185056 0.848128
0.735654 0.190829 0.855007
0.819710 0.194826 0.859768
0.866159 0.197034 0.862399
0.048251 0.280540 0.828517
0.179160 0.286764 0.835933
0.295947 0.292316 0.842548
0.407936 0.297640 0.848892
0.516920 0.302822 0.855065
0.623722 0.307899 0.861115
0.745162 0.313673 0.867994
0.829219 0.317669 0.872756
0.875668 0.319877 0.875387
0.057369 0.398338 0.840971
0.188278 0.404561 0.848387
0.305065 0.410114 0.855002
0.417055 0.415438 0.861346
0.526038 0.420619 0.867520
0.632841 0.425697 0.873569
0.754278 0.431815 0.881184
0.838476 0.436191 0.886558
0.885003 0.438609 0.889527
0.066242 0.512974 0.853091
0.197152 0.519197 0.860507
0.313938 0.524750 0.867122
0.425928 0.530074 0.873466
0.534885 0.535535 0.880271
0.641867 0.541095 0.887099
0.763512 0.547417 0.894862
0.847710 0.551793 0.900236
0.894237 0.554212 0.903205
0.074938 0.625315 0.864968
0.205848 0.631539 0.872384
0.322588 0.637320 0.879549
0.434767 0.643150 0.886708
0.543934 0.648824 0.893676
0.650917 0.654384 0.900503
0.772561 0.660706 0.908267
0.856759 0.665082 0.913640
0.903286 0.667500 0.916610
0.084764 0.753240 0.878955
0.215894 0.760055 0.887324
0.332878 0.766135 0.894790
0.445056 0.771965 0.901950
0.554224 0.777639 0.908917
0.661206 0.783199 0.915745
0.782851 0.789521 0.923508
0.867049 0.793897 0.928882
0.913576 0.796315 0.931851
0.091886 0.842401 0.889505
0.223016 0.849216 0.897874
0.340000 0.855296 0.905340
0.452178 0.861127 0.912499
0.561346 0.866800 0.919466
0.668328 0.872360 0.926294
0.789973 0.878683 0.934058
0.874171 0.883059 0.939431
0.920698 0.885477 0.942401
0.095822 0.891671 0.895335
0.226952 0.898486 0.903703
0.343935 0.904566 0.911169
0.456114 0.910396 0.918329
0.565281 0.916070 0.925296
0.672264 0.921630 0.932124
0.793908 0.927952 0.939887
0.878106 0.932328 0.945261
0.924634 0.934746 0.948230
