app/src/main/assets/lut/fuji_astia.cube
TITLE "Filmic Astia"
LUT_3D_SIZE 5
DOMAIN_MIN 0.0 0.0 0.0
DOMAIN_MAX 1.0 1.0 1.0
0.015000 0.005000 0.000000
0.262696 0.016776 0.004031
0.483670 0.027281 0.016548
0.711912 0.038132 0.029477
0.842417 0.044337 0.036870
0.035167 0.265542 0.017546
0.282863 0.277318 0.031576
0.503837 0.287824 0.044094
0.732079 0.298675 0.057023
0.862584 0.304879 0.064415
0.053159 0.497976 0.042119
0.300855 0.509752 0.056150
0.521829 0.520257 0.068668
0.750070 0.531108 0.081596
0.880622 0.537788 0.089936
0.071742 0.738055 0.067502
0.319438 0.749831 0.081532
0.540609 0.761215 0.095647
0.769235 0.773098 0.110239
0.899961 0.779892 0.118582
0.082368 0.875328 0.082015
0.330320 0.888143 0.097900
0.551666 0.899647 0.112027
0.780293 0.911529 0.126618
0.911018 0.918323 0.134961
0.018917 0.009490 0.232773
0.266613 0.021266 0.246804
0.487586 0.031771 0.259321
0.715828 0.042622 0.272250
0.846334 0.048827 0.279643
0.039084 0.270032 0.260319
0.286780 0.281808 0.274350
0.507754 0.292313 0.286867
0.735996 0.303164 0.299796
0.866501 0.309369 0.307188
0.057076 0.502466 0.284893
0.304772 0.514242 0.298923
0.525745 0.524747 0.311441
0.753972 0.535911 0.325054
0.884698 0.542705 0.333397
0.075659 0.742545 0.310275
0.323338 0.754628 0.324982
0.544684 0.766132 0.339108
0.773311 0.778014 0.353700
0.904037 0.784808 0.362043
0.086282 0.880164 0.325526
0.334396 0.893059 0.341361
0.555742 0.904563 0.355487
0.784369 0.916445 0.370079
0.915094 0.923240 0.378422
0.022411 0.013495 0.449355
0.270107 0.025271 0.463386
0.491080 0.035777 0.475903
0.719322 0.046628 0.488832
0.849828 0.052832 0.496224
0.042578 0.274037 0.476900
0.290274 0.285813 0.490931
0.511248 0.296319 0.503448
0.739490 0.307170 0.516377
0.869995 0.313374 0.523770
0.060570 0.506471 0.501474
0.308266 0.518247 0.515505
0.529239 0.528752 0.528022
0.757609 0.540297 0.542249
0.888334 0.547091 0.550592
0.079153 0.746550 0.526856
0.326975 0.759014 0.542177
0.548321 0.770518 0.556304
0.776947 0.782400 0.570895
0.907673 0.789194 0.579238
0.089918 0.884550 0.542721
0.338032 0.897445 0.558556
0.559378 0.908949 0.572683
0.788005 0.920832 0.587274
0.918730 0.927626 0.595617
0.026020 0.017632 0.673060
0.273716 0.029408 0.687091
0.494689 0.039914 0.699608
0.722931 0.050765 0.712537
0.853437 0.056969 0.719930
0.046187 0.278175 0.700606
0.293883 0.289951 0.714637
0.514857 0.300456 0.727154
0.743099 0.311307 0.740083
0.873604 0.317511 0.747475
0.064179 0.510608 0.725180
0.311875 0.522384 0.739211
0.532738 0.532945 0.751997
0.761364 0.544827 0.766589
0.892090 0.551621 0.774932
0.082742 0.750691 0.750598
0.330730 0.763545 0.766516
0.552076 0.775048 0.780643
0.780703 0.786931 0.795234
0.911429 0.793725 0.803577
0.093674 0.889081 0.767061
0.341788 0.901976 0.782896
0.563134 0.913480 0.797022
0.791761 0.925362 0.811613
0.922486 0.932156 0.819956
0.028083 0.019998 0.800972
0.275780 0.031774 0.815003
0.496753 0.042279 0.827520
0.724995 0.053130 0.840449
0.855500 0.059335 0.847841
0.048251 0.280540 0.828517
0.295947 0.292316 0.842548
0.516920 0.302822 0.855065
0.745162 0.313673 0.867994
0.875668 0.319877 0.875387
0.066242 0.512974 0.853091
0.313938 0.524750 0.867122
0.534885 0.535535 0.880271
0.763512 0.547417 0.894862
0.894237 0.554212 0.903205
0.084764 0.753240 0.878955
0.332878 0.766135 0.894790
0.554224 0.777639 0.908917
0.782851 0.789521 0.923508
0.913576 0.796315 0.931851
0.095822 0.891671 0.895335
0.343935 0.904566 0.911169
0.565281 0.916070 0.925296
0.793908 0.927952 0.939887
0.924634 0.934746 0.948230
