app/src/main/assets/lut/hasselblad_xpan.cube
TITLE "Filmic XPan"
LUT_3D_SIZE 17
DOMAIN_MIN 0.0 0.0 0.0
DOMAIN_MAX 1.0 1.0 1.0
0.020480 0.030000 0.044280
0.071274 0.033513 0.047372
0.122069 0.037026 0.050463
0.172863 0.040540 0.053555
0.223657 0.044053 0.056647
0.274452 0.047566 0.059738
0.325246 0.051079 0.062830
0.376040 0.054593 0.065922
0.426834 0.058106 0.069013
0.477629 0.061619 0.072105
0.528423 0.065132 0.075197
0.579217 0.068646 0.078288
0.630012 0.072159 0.081380
0.680806 0.075672 0.084472
0.731600 0.079185 0.087563
0.782395 0.082699 0.090655
0.833189 0.086212 0.093747
0.027929 0.083897 0.050350
0.078723 0.087410 0.053441
0.129518 0.090924 0.056533
0.180312 0.094437 0.059625
0.231106 0.097950 0.062716
0.281901 0.101463 0.065808
0.332695 0.104977 0.068900
0.383489 0.108490 0.071991
0.434284 0.112003 0.075083
0.485078 0.115516 0.078175
0.535872 0.119030 0.081266
0.586666 0.122543 0.084358
0.637461 0.126056 0.087449
0.688255 0.129569 0.090541
0.739049 0.133083 0.093633
0.789844 0.136596 0.096724
0.840638 0.140109 0.099816
0.035378 0.137794 0.056419
0.086172 0.141308 0.059511
0.136967 0.144821 0.062602
0.187761 0.148334 0.065694
0.238555 0.151847 0.068786
0.289350 0.155361 0.071877
0.340144 0.158874 0.074969
0.390938 0.162387 0.078061
0.441733 0.165900 0.081152
0.492527 0.169414 0.084244
0.543321 0.172927 0.087336
0.594115 0.176440 0.090427
0.644910 0.179953 0.093519
0.695704 0.183467 0.096611
0.746498 0.186980 0.099702
0.797293 0.190493 0.102794
0.848087 0.194006 0.105886
0.042827 0.191692 0.062489
0.093621 0.195205 0.065580
0.144416 0.198718 0.068672
0.195210 0.202232 0.071764
0.246004 0.205745 0.074855
0.296799 0.209258 0.077947
0.347593 0.212771 0.081039
0.398387 0.216284 0.084130
0.449182 0.219798 0.087222
0.499976 0.223311 0.090314
0.550770 0.226824 0.093405
0.601564 0.230337 0.096497
0.652359 0.233851 0.099589
0.703153 0.237364 0.102680
0.753947 0.240877 0.105772
0.804742 0.244390 0.108864
0.855536 0.247904 0.111955
0.050276 0.245589 0.068558
0.101070 0.249102 0.071650
0.151865 0.252615 0.074742
0.202659 0.256129 0.077833
0.253453 0.259642 0.080925
0.304248 0.263155 0.084017
0.355042 0.266668 0.087108
0.405836 0.270182 0.090200
0.456631 0.273695 0.093292
0.507425 0.277208 0.096383
0.558219 0.280722 0.099475
0.609014 0.284235 0.102567
0.659808 0.287748 0.105658
0.710602 0.291261 0.108750
0.761396 0.294774 0.111842
0.812191 0.298288 0.114933
0.862985 0.301801 0.118025
0.057725 0.299486 0.074628
0.108519 0.302999 0.077720
0.159314 0.306513 0.080811
0.210108 0.310026 0.083903
0.260902 0.313539 0.086995
0.311697 0.317052 0.090086
0.362491 0.320566 0.093178
0.413285 0.324079 0.096270
0.464080 0.327592 0.099361
0.514874 0.331105 0.102453
0.565668 0.334619 0.105544
0.616463 0.338132 0.108636
0.667257 0.341645 0.111728
0.718051 0.345158 0.114819
0.768845 0.348672 0.117911
0.819640 0.352185 0.121003
0.870434 0.355698 0.124094
0.065174 0.353383 0.080697
0.115968 0.356897 0.083789
0.166763 0.360410 0.086881
0.217557 0.363923 0.089972
0.268351 0.367436 0.093064
0.319146 0.370950 0.096156
0.369940 0.374463 0.099247
0.420734 0.377976 0.102339
0.471529 0.381489 0.105431
0.522323 0.385003 0.108522
0.573117 0.388516 0.111614
0.623912 0.392029 0.114706
0.674706 0.395542 0.117797
0.725500 0.399056 0.120889
0.776295 0.402569 0.123981
0.827104 0.406082 0.127059
0.878530 0.409595 0.129582
0.072623 0.407281 0.086767
0.123418 0.410794 0.089859
0.174212 0.414307 0.092950
0.225006 0.417821 0.096042
0.275800 0.421334 0.099134
0.326595 0.424847 0.102225
0.377389 0.428360 0.105317
0.428183 0.431874 0.108409
0.478978 0.435387 0.111500
0.529772 0.438900 0.114592
0.580566 0.442413 0.117684
0.631361 0.445927 0.120775
0.682155 0.449440 0.123867
0.732949 0.452953 0.126959
0.784367 0.456466 0.129489
0.835794 0.459979 0.132011
0.887221 0.463493 0.134534
0.080072 0.461178 0.092837
0.130867 0.464691 0.095928
0.181661 0.468205 0.099020
0.232455 0.471718 0.102112
0.283249 0.475231 0.105203
0.334044 0.478744 0.108295
0.384838 0.482258 0.111387
0.435632 0.485771 0.114478
0.486427 0.489284 0.117570
0.537221 0.492797 0.120662
0.588015 0.496310 0.123753
0.638810 0.499824 0.126845
0.690205 0.503337 0.129396
0.741631 0.506850 0.131918
0.793058 0.510363 0.134441
0.844485 0.513877 0.136964
0.895911 0.517390 0.139486
0.087521 0.515075 0.098906
0.138316 0.518589 0.101998
0.189110 0.522102 0.105090
0.239904 0.525615 0.108181
0.290699 0.529128 0.111273
0.341493 0.532641 0.114365
0.392287 0.536155 0.117456
0.443081 0.539668 0.120548
0.493876 0.543181 0.123639
0.544670 0.546694 0.126731
0.596042 0.550208 0.129303
0.647468 0.553721 0.131826
0.698895 0.557234 0.134348
0.750322 0.560747 0.136871
0.801749 0.564261 0.139393
0.853175 0.567774 0.141916
0.904602 0.571287 0.144438
0.094970 0.568972 0.104976
0.145765 0.572486 0.108067
0.196559 0.575999 0.111159
0.247353 0.579512 0.114251
0.298148 0.583025 0.117342
0.348942 0.586539 0.120434
0.399736 0.590052 0.123526
0.450530 0.593565 0.126617
0.501879 0.597078 0.129210
0.553306 0.600592 0.131733
0.604732 0.604105 0.134255
0.656159 0.607618 0.136778
0.707586 0.611131 0.139300
0.759012 0.614645 0.141823
0.810439 0.618158 0.144345
0.861652 0.621671 0.147189
0.912798 0.625184 0.150133
0.102419 0.622870 0.111045
0.153214 0.626383 0.114137
0.204008 0.629896 0.117229
0.254802 0.633409 0.120320
0.305597 0.636923 0.123412
0.356391 0.640436 0.126504
0.407716 0.643949 0.129118
0.459143 0.647463 0.131640
0.510569 0.650976 0.134163
0.561996 0.654489 0.136685
0.613423 0.658002 0.139208
0.664850 0.661516 0.141730
0.716276 0.665029 0.144253
0.767500 0.668542 0.147080
0.818645 0.672055 0.150024
0.869791 0.675569 0.152968
0.920936 0.679082 0.155913
0.109868 0.676767 0.117115
0.160663 0.680280 0.120207
0.211457 0.683793 0.123298
0.262251 0.687307 0.126390
0.313553 0.690820 0.129025
0.364980 0.694333 0.131547
0.416407 0.697846 0.134070
0.467833 0.701360 0.136592
0.519260 0.704873 0.139115
0.570687 0.708386 0.141637
0.622113 0.711899 0.144160
0.673347 0.715413 0.146972
0.724493 0.718926 0.149916
0.775638 0.722439 0.152860
0.826784 0.725952 0.155804
0.877930 0.729466 0.158748
0.929075 0.732979 0.161692
0.117317 0.730664 0.123185
0.168112 0.734177 0.126276
0.219390 0.737691 0.128932
0.270817 0.741204 0.131454
0.322244 0.744717 0.133977
0.373670 0.748231 0.136499
0.425097 0.751744 0.139022
0.476524 0.755257 0.141545
0.527951 0.758770 0.144067
0.579195 0.762283 0.146864
0.630340 0.765797 0.149808
0.681486 0.769310 0.152752
0.732631 0.772823 0.155696
0.783777 0.776336 0.158640
0.834923 0.779850 0.161584
0.886068 0.783363 0.164528
0.937214 0.786876 0.167472
0.125227 0.784562 0.128839
0.176654 0.788075 0.131362
0.228081 0.791588 0.133884
0.279508 0.795101 0.136407
0.330934 0.798615 0.138929
0.382361 0.802128 0.141452
0.433788 0.805641 0.143974
0.485042 0.809154 0.146755
0.536188 0.812667 0.149699
0.587333 0.816181 0.152643
0.638479 0.819694 0.155588
0.689625 0.823207 0.158532
0.740770 0.826720 0.161476
0.791916 0.830234 0.164420
0.843061 0.833747 0.167364
0.894207 0.837260 0.170308
0.945353 0.840774 0.173252
0.133918 0.838459 0.133791
0.185345 0.841972 0.136314
0.236771 0.845485 0.138836
0.288198 0.848998 0.141359
0.339625 0.852512 0.143881
0.390889 0.856025 0.146647
0.442035 0.859538 0.149591
0.493181 0.863052 0.152535
0.544326 0.866565 0.155479
0.595472 0.870078 0.158423
0.646618 0.873591 0.161367
0.697763 0.877105 0.164312
0.748909 0.880618 0.167256
0.800055 0.884131 0.170200
0.851200 0.887644 0.173144
0.902346 0.891158 0.176088
0.953491 0.894671 0.179032
0.142609 0.892356 0.138744
0.194035 0.895869 0.141266
0.245462 0.899382 0.143789
0.296737 0.902896 0.146539
0.347883 0.906409 0.149483
0.399028 0.909922 0.152427
0.450174 0.913435 0.155371
0.501320 0.916949 0.158315
0.552465 0.920462 0.161259
0.603611 0.923975 0.164203
0.654756 0.927488 0.167147
0.705902 0.931002 0.170091
0.757048 0.934515 0.173036
0.808193 0.938028 0.175980
0.859339 0.941542 0.178924
0.910485 0.945055 0.181868
0.961630 0.948568 0.184812
0.021957 0.031368 0.093484
0.072752 0.034881 0.096575
0.123546 0.038394 0.099667
0.174340 0.041908 0.102759
0.225135 0.045421 0.105850
0.275929 0.048934 0.108942
0.326723 0.052447 0.112034
0.377518 0.055961 0.115125
0.428312 0.059474 0.118217
0.479106 0.062987 0.121309
0.529901 0.066500 0.124400
0.580695 0.070014 0.127492
0.631489 0.073527 0.130584
0.682283 0.077040 0.133675
0.733078 0.080553 0.136767
0.783872 0.084067 0.139859
0.834666 0.087580 0.142950
0.029406 0.085265 0.099553
0.080201 0.088778 0.102645
0.130995 0.092292 0.105737
0.181789 0.095805 0.108828
0.232584 0.099318 0.111920
0.283378 0.102831 0.115012
0.334172 0.106345 0.118103
0.384967 0.109858 0.121195
0.435761 0.113371 0.124287
0.486555 0.116884 0.127378
0.537350 0.120398 0.130470
0.588144 0.123911 0.133562
0.638938 0.127424 0.136653
0.689732 0.130937 0.139745
0.740527 0.134451 0.142837
0.791321 0.137964 0.145928
0.842115 0.141477 0.149020
0.036855 0.139162 0.105623
0.087650 0.142676 0.108715
0.138444 0.146189 0.111806
0.189238 0.149702 0.114898
0.240033 0.153215 0.117990
0.290827 0.156729 0.121081
0.341621 0.160242 0.124173
0.392416 0.163755 0.127265
0.443210 0.167268 0.130356
0.494004 0.170782 0.133448
0.544799 0.174295 0.136540
0.595593 0.177808 0.139631
0.646387 0.181321 0.142723
0.697182 0.184835 0.145815
0.747976 0.188348 0.148906
0.798770 0.191861 0.151998
0.849564 0.195374 0.155090
0.044305 0.193060 0.111693
0.095099 0.196573 0.114784
0.145893 0.200086 0.117876
0.196687 0.203599 0.120968
0.247482 0.207113 0.124059
0.298276 0.210626 0.127151
0.349070 0.214139 0.130243
0.399865 0.217652 0.133334
0.450659 0.221166 0.136426
0.501453 0.224679 0.139518
0.552248 0.228192 0.142609
0.603042 0.231706 0.145701
0.653836 0.235219 0.148792
0.704631 0.238732 0.151884
0.755425 0.242245 0.154976
0.806219 0.245758 0.158067
0.857013 0.249272 0.161159
0.051754 0.246957 0.117762
0.102548 0.250470 0.120854
0.153342 0.253984 0.123945
0.204136 0.257497 0.127037
0.254931 0.261010 0.130129
0.305725 0.264523 0.133220
0.356519 0.268037 0.136312
0.407314 0.271550 0.139404
0.458108 0.275063 0.142495
0.508902 0.278576 0.145587
0.559697 0.282089 0.148679
0.610491 0.285603 0.151770
0.661285 0.289116 0.154862
0.712080 0.292629 0.157954
0.762874 0.296142 0.161045
0.813668 0.299656 0.164137
0.864463 0.303169 0.167229
0.059203 0.300854 0.123832
0.109997 0.304368 0.126923
0.160791 0.307881 0.130015
0.211586 0.311394 0.133107
0.262380 0.314907 0.136198
0.313174 0.318420 0.139290
0.363968 0.321934 0.142382
0.414763 0.325447 0.145473
0.465557 0.328960 0.148565
0.516351 0.332473 0.151657
0.567146 0.335987 0.154748
0.617940 0.339500 0.157840
0.668734 0.343013 0.160932
0.719529 0.346526 0.164023
0.770323 0.350040 0.167115
0.821117 0.353553 0.170207
0.871912 0.357066 0.173298
0.066652 0.354751 0.129901
0.117446 0.358265 0.132993
0.168240 0.361778 0.136085
0.219035 0.365291 0.139176
0.269829 0.368804 0.142268
0.320623 0.372318 0.145360
0.371417 0.375831 0.148451
0.422212 0.379344 0.151543
0.473006 0.382857 0.154635
0.523800 0.386371 0.157726
0.574595 0.389884 0.160818
0.625389 0.393397 0.163910
0.676183 0.396910 0.167001
0.726978 0.400424 0.170093
0.777772 0.403937 0.173185
0.828827 0.407450 0.176041
0.880254 0.410963 0.178564
0.074101 0.408649 0.135971
0.124895 0.412162 0.139063
0.175689 0.415675 0.142154
0.226484 0.419189 0.145246
0.277278 0.422702 0.148338
0.328072 0.426215 0.151429
0.378867 0.429728 0.154521
0.429661 0.433242 0.157613
0.480455 0.436755 0.160704
0.531249 0.440268 0.163796
0.582044 0.443781 0.166887
0.632838 0.447295 0.169979
0.683632 0.450808 0.173071
0.734664 0.454321 0.175948
0.786091 0.457834 0.178471
0.837518 0.461348 0.180994
0.888945 0.464861 0.183516
0.081550 0.462546 0.142040
0.132344 0.466059 0.145132
0.183138 0.469573 0.148224
0.233933 0.473086 0.151315
0.284727 0.476599 0.154407
0.335521 0.480112 0.157499
0.386316 0.483625 0.160590
0.437110 0.487139 0.163682
0.487904 0.490652 0.166774
0.538698 0.494165 0.169865
0.589493 0.497679 0.172957
0.640502 0.501192 0.175856
0.691928 0.504705 0.178378
0.743355 0.508218 0.180901
0.794782 0.511732 0.183423
0.846208 0.515245 0.185946
0.897635 0.518758 0.188468
0.088999 0.516443 0.148110
0.139793 0.519956 0.151202
0.190587 0.523470 0.154293
0.241382 0.526983 0.157385
0.292176 0.530496 0.160477
0.342970 0.534010 0.163568
0.393765 0.537523 0.166660
0.444559 0.541036 0.169752
0.495353 0.544549 0.172843
0.546339 0.548063 0.175763
0.597765 0.551576 0.178285
0.649192 0.555089 0.180808
0.700619 0.558602 0.183330
0.752046 0.562115 0.185853
0.803472 0.565629 0.188375
0.854899 0.569142 0.190898
0.906273 0.572655 0.193499
0.096448 0.570340 0.154180
0.147242 0.573854 0.157271
0.198036 0.577367 0.160363
0.248831 0.580880 0.163455
0.299625 0.584394 0.166546
0.350419 0.587907 0.169638
0.401214 0.591420 0.172730
0.452176 0.594933 0.175670
0.503603 0.598446 0.178193
0.555029 0.601960 0.180715
0.606456 0.605473 0.183238
0.657883 0.608986 0.185760
0.709309 0.612499 0.188283
0.760736 0.616013 0.190805
0.812121 0.619526 0.193391
0.863266 0.623039 0.196335
0.914412 0.626552 0.199279
0.103897 0.624238 0.160249
0.154691 0.627751 0.163341
0.205485 0.631264 0.166433
0.256280 0.634777 0.169524
0.307074 0.638291 0.172616
0.358013 0.641804 0.175577
0.409440 0.645317 0.178100
0.460866 0.648830 0.180622
0.512293 0.652344 0.183145
0.563720 0.655857 0.185667
0.615147 0.659370 0.188190
0.666573 0.662883 0.190712
0.717968 0.666397 0.193282
0.769114 0.669910 0.196227
0.820259 0.673423 0.199171
0.871405 0.676937 0.202115
0.922551 0.680450 0.205059
0.111346 0.678135 0.166319
0.162140 0.681648 0.169410
0.212934 0.685161 0.172502
0.263850 0.688675 0.175484
0.315277 0.692188 0.178007
0.366704 0.695701 0.180529
0.418130 0.699214 0.183052
0.469557 0.702728 0.185575
0.520984 0.706241 0.188097
0.572410 0.709754 0.190620
0.623816 0.713267 0.193174
0.674961 0.716781 0.196118
0.726107 0.720294 0.199062
0.777253 0.723807 0.202006
0.828398 0.727320 0.204951
0.879544 0.730834 0.207895
0.930689 0.734347 0.210839
0.118795 0.732032 0.172388
0.169687 0.735545 0.175392
0.221114 0.739059 0.177914
0.272541 0.742572 0.180437
0.323967 0.746085 0.182959
0.375394 0.749598 0.185482
0.426821 0.753112 0.188004
0.478248 0.756625 0.190527
0.529663 0.760138 0.193066
0.580809 0.763651 0.196010
0.631954 0.767165 0.198954
0.683100 0.770678 0.201898
0.734246 0.774191 0.204842
0.785391 0.777705 0.207786
0.836537 0.781218 0.210730
0.887683 0.784731 0.213675
0.938828 0.788244 0.216619
0.126951 0.785930 0.177821
0.178378 0.789443 0.180344
0.229805 0.792956 0.182866
0.281231 0.796469 0.185389
0.332658 0.799983 0.187911
0.384085 0.803496 0.190434
0.435511 0.807009 0.192958
0.486656 0.810522 0.195902
0.537802 0.814036 0.198846
0.588948 0.817549 0.201790
0.640093 0.821062 0.204734
0.691239 0.824575 0.207678
0.742384 0.828089 0.210622
0.793530 0.831602 0.213566
0.844676 0.835115 0.216510
0.895821 0.838628 0.219454
0.946967 0.842141 0.222399
0.135642 0.839827 0.182774
0.187068 0.843340 0.185296
0.238495 0.846853 0.187819
0.289922 0.850367 0.190341
0.341348 0.853880 0.192864
0.392504 0.857393 0.195793
0.443649 0.860906 0.198737
0.494795 0.864420 0.201682
0.545941 0.867933 0.204626
0.597086 0.871446 0.207570
0.648232 0.874959 0.210514
0.699378 0.878473 0.213458
0.750523 0.881986 0.216402
0.801669 0.885499 0.219346
0.852814 0.889012 0.222290
0.903960 0.892526 0.225234
0.955106 0.896039 0.228178
0.144332 0.893724 0.187726
0.195759 0.897237 0.190248
0.247186 0.900751 0.192771
0.298351 0.904264 0.195685
0.349497 0.907777 0.198629
0.400642 0.911290 0.201573
0.451788 0.914803 0.204517
0.502934 0.918317 0.207461
0.554079 0.921830 0.210406
0.605225 0.925343 0.213350
0.656371 0.928856 0.216294
0.707516 0.932370 0.219238
0.758662 0.935883 0.222182
0.809808 0.939396 0.225126
0.860953 0.942909 0.228070
0.912099 0.946423 0.231014
0.963244 0.949936 0.233958
0.023435 0.032736 0.142688
0.074229 0.036249 0.145779
0.125023 0.039762 0.148871
0.175818 0.043276 0.151963
0.226612 0.046789 0.155054
0.277406 0.050302 0.158146
0.328201 0.053815 0.161238
0.378995 0.057329 0.164329
0.429789 0.060842 0.167421
0.480584 0.064355 0.170513
0.531378 0.067868 0.173604
0.582172 0.071382 0.176696
0.632967 0.074895 0.179788
0.683761 0.078408 0.182879
0.734555 0.081921 0.185971
0.785350 0.085435 0.189063
0.836144 0.088948 0.192154
0.030884 0.086633 0.148757
0.081678 0.090146 0.151849
0.132473 0.093660 0.154941
0.183267 0.097173 0.158032
0.234061 0.100686 0.161124
0.284855 0.104199 0.164216
0.335650 0.107713 0.167307
0.386444 0.111226 0.170399
0.437238 0.114739 0.173491
0.488033 0.118252 0.176582
0.538827 0.121766 0.179674
0.589621 0.125279 0.182766
0.640416 0.128792 0.185857
0.691210 0.132305 0.188949
0.742004 0.135819 0.192040
0.792799 0.139332 0.195132
0.843593 0.142845 0.198224
0.038333 0.140530 0.154827
0.089127 0.144044 0.157918
0.139922 0.147557 0.161010
0.190716 0.151070 0.164102
0.241510 0.154583 0.167193
0.292304 0.158097 0.170285
0.343099 0.161610 0.173377
0.393893 0.165123 0.176468
0.444687 0.168636 0.179560
0.495482 0.172150 0.182652
0.546276 0.175663 0.185743
0.597070 0.179176 0.188835
0.647865 0.182689 0.191927
0.698659 0.186203 0.195018
0.749453 0.189716 0.198110
0.800248 0.193229 0.201202
0.851042 0.196742 0.204293
0.045782 0.194428 0.160896
0.096576 0.197941 0.163988
0.147371 0.201454 0.167080
0.198165 0.204967 0.170171
0.248959 0.208481 0.173263
0.299754 0.211994 0.176355
0.350548 0.215507 0.179446
0.401342 0.219021 0.182538
0.452136 0.222534 0.185630
0.502931 0.226047 0.188721
0.553725 0.229560 0.191813
0.604519 0.233073 0.194905
0.655314 0.236587 0.197996
0.706108 0.240100 0.201088
0.756902 0.243613 0.204180
0.807697 0.247126 0.207271
0.858491 0.250640 0.210363
0.053231 0.248325 0.166966
0.104025 0.251838 0.170058
0.154820 0.255352 0.173149
0.205614 0.258865 0.176241
0.256408 0.262378 0.179333
0.307203 0.265891 0.182424
0.357997 0.269404 0.185516
0.408791 0.272918 0.188608
0.459585 0.276431 0.191699
0.510380 0.279944 0.194791
0.561174 0.283458 0.197883
0.611968 0.286971 0.200974
0.662763 0.290484 0.204066
0.713557 0.293997 0.207158
0.764351 0.297511 0.210249
0.815146 0.301024 0.213341
0.865940 0.304537 0.216433
0.060680 0.302222 0.173036
0.111474 0.305735 0.176127
0.162269 0.309249 0.179219
0.213063 0.312762 0.182311
0.263857 0.316275 0.185402
0.314652 0.319788 0.188494
0.365446 0.323302 0.191586
0.416240 0.326815 0.194677
0.467035 0.330328 0.197769
0.517829 0.333841 0.200861
0.568623 0.337355 0.203952
0.619417 0.340868 0.207044
0.670212 0.344381 0.210135
0.721006 0.347894 0.213227
0.771800 0.351408 0.216319
0.822595 0.354921 0.219410
0.873389 0.358434 0.222502
0.068129 0.356119 0.179105
0.118923 0.359633 0.182197
0.169718 0.363146 0.185288
0.220512 0.366659 0.188380
0.271306 0.370172 0.191472
0.322101 0.373686 0.194563
0.372895 0.377199 0.197655
0.423689 0.380712 0.200747
0.474484 0.384225 0.203838
0.525278 0.387739 0.206930
0.576072 0.391252 0.210022
0.626866 0.394765 0.213113
0.677661 0.398278 0.216205
0.728455 0.401792 0.219297
0.779249 0.405305 0.222388
0.830551 0.408818 0.225024
0.881978 0.412331 0.227546
0.075578 0.410017 0.185175
0.126372 0.413530 0.188266
0.177167 0.417043 0.191358
0.227961 0.420556 0.194450
0.278755 0.424070 0.197541
0.329550 0.427583 0.200633
0.380344 0.431096 0.203725
0.431138 0.434610 0.206816
0.481933 0.438123 0.209908
0.532727 0.441636 0.213000
0.583521 0.445149 0.216091
0.634316 0.448663 0.219183
0.685110 0.452176 0.222275
0.736388 0.455689 0.224931
0.787815 0.459202 0.227453
0.839242 0.462716 0.229976
0.890668 0.466229 0.232498
0.083027 0.463914 0.191244
0.133821 0.467427 0.194336
0.184616 0.470940 0.197428
0.235410 0.474454 0.200519
0.286204 0.477967 0.203611
0.336999 0.481480 0.206703
0.387793 0.484993 0.209794
0.438587 0.488507 0.212886
0.489382 0.492020 0.215978
0.540176 0.495533 0.219069
0.590970 0.499047 0.222161
0.642225 0.502560 0.224838
0.693652 0.506073 0.227360
0.745079 0.509586 0.229883
0.796505 0.513100 0.232405
0.847932 0.516613 0.234928
0.899359 0.520126 0.237450
0.090476 0.517811 0.197314
0.141270 0.521324 0.200406
0.192065 0.524838 0.203497
0.242859 0.528351 0.206589
0.293653 0.531864 0.209681
0.344448 0.535377 0.212772
0.395242 0.538891 0.215864
0.446036 0.542404 0.218956
0.496831 0.545917 0.222047
0.548062 0.549430 0.224745
0.599489 0.552944 0.227268
0.650916 0.556457 0.229790
0.702343 0.559970 0.232313
0.753769 0.563484 0.234835
0.805196 0.566997 0.237358
0.856623 0.570510 0.239880
0.907887 0.574023 0.242645
0.097925 0.571708 0.203383
0.148719 0.575222 0.206475
0.199514 0.578735 0.209567
0.250308 0.582248 0.212658
0.301102 0.585761 0.215750
0.351897 0.589275 0.218842
0.402691 0.592788 0.221933
0.453900 0.596301 0.224652
0.505326 0.599814 0.227175
0.556753 0.603328 0.229697
0.608180 0.606841 0.232220
0.659606 0.610354 0.234742
0.711033 0.613868 0.237265
0.762460 0.617381 0.239787
0.813735 0.620894 0.242537
0.864881 0.624407 0.245481
0.916026 0.627920 0.248425
0.105374 0.625606 0.209453
0.156169 0.629119 0.212545
0.206963 0.632632 0.215636
0.257757 0.636146 0.218728
0.308551 0.639659 0.221820
0.359737 0.643172 0.224559
0.411163 0.646685 0.227082
0.462590 0.650199 0.229605
0.514017 0.653712 0.232127
0.565443 0.657225 0.234650
0.616870 0.660738 0.237172
0.668297 0.664251 0.239695
0.719582 0.667765 0.242429
0.770728 0.671278 0.245373
0.821874 0.674791 0.248317
0.873019 0.678304 0.251261
0.924165 0.681818 0.254205
0.112823 0.679503 0.215523
0.163618 0.683016 0.218614
0.214412 0.686529 0.221706
0.265574 0.690043 0.224467
0.317001 0.693556 0.226989
0.368427 0.697069 0.229512
0.419854 0.700582 0.232034
0.471281 0.704096 0.234557
0.522707 0.707609 0.237079
0.574134 0.711122 0.239602
0.625430 0.714635 0.242321
0.676576 0.718149 0.245265
0.727721 0.721662 0.248209
0.778867 0.725175 0.251153
0.830012 0.728688 0.254097
0.881158 0.732202 0.257041
0.932304 0.735715 0.259985
0.120272 0.733400 0.221592
0.171411 0.736913 0.224374
0.222838 0.740427 0.226896
0.274264 0.743940 0.229419
0.325691 0.747453 0.231941
0.377118 0.750966 0.234464
0.428544 0.754480 0.236986
0.479971 0.757993 0.239509
0.531277 0.761506 0.242212
0.582423 0.765019 0.245156
0.633569 0.768533 0.248100
0.684714 0.772046 0.251045
0.735860 0.775559 0.253989
0.787006 0.779072 0.256933
0.838151 0.782586 0.259877
0.889297 0.786099 0.262821
0.940442 0.789612 0.265765
0.128675 0.787297 0.226804
0.180102 0.790811 0.229326
0.231528 0.794324 0.231849
0.282955 0.797837 0.234371
0.334382 0.801350 0.236894
0.385808 0.804864 0.239416
0.437125 0.808377 0.242104
0.488270 0.811890 0.245048
0.539416 0.815403 0.247992
0.590562 0.818917 0.250936
0.641707 0.822430 0.253880
0.692853 0.825943 0.256824
0.743999 0.829457 0.259769
0.795144 0.832970 0.262713
0.846290 0.836483 0.265657
0.897436 0.839996 0.268601
0.948581 0.843510 0.271545
0.137365 0.841195 0.231756
0.188792 0.844708 0.234278
0.240219 0.848221 0.236801
0.291645 0.851735 0.239323
0.342972 0.855248 0.241996
0.394118 0.858761 0.244940
0.445264 0.862274 0.247884
0.496409 0.865788 0.250828
0.547555 0.869301 0.253772
0.598701 0.872814 0.256716
0.649846 0.876327 0.259660
0.700992 0.879841 0.262604
0.752137 0.883354 0.265548
0.803283 0.886867 0.268493
0.854429 0.890380 0.271437
0.905574 0.893894 0.274381
0.956720 0.897407 0.277325
0.146056 0.895092 0.236708
0.197483 0.898605 0.239231
0.248820 0.902119 0.241887
0.299965 0.905632 0.244831
0.351111 0.909145 0.247776
0.402257 0.912658 0.250720
0.453402 0.916171 0.253664
0.504548 0.919685 0.256608
0.555694 0.923198 0.259552
0.606839 0.926711 0.262496
0.657985 0.930225 0.265440
0.709131 0.933738 0.268384
0.760276 0.937251 0.271328
0.811422 0.940764 0.274272
0.862567 0.944277 0.277217
0.913713 0.947791 0.280161
0.964859 0.951304 0.283105
0.024912 0.034104 0.191892
0.075707 0.037617 0.194983
0.126501 0.041131 0.198075
0.177295 0.044644 0.201166
0.228090 0.048157 0.204258
0.278884 0.051670 0.207350
0.329678 0.055183 0.210441
0.380472 0.058697 0.213533
0.431267 0.062210 0.216625
0.482061 0.065723 0.219716
0.532855 0.069236 0.222808
0.583650 0.072750 0.225900
0.634444 0.076263 0.228991
0.685238 0.079776 0.232083
0.736033 0.083289 0.235175
0.786827 0.086803 0.238266
0.837621 0.090316 0.241358
0.032361 0.088001 0.197961
