app/src/main/assets/lut/hasselblad_xpan.cube
TITLE "Filmic XPan"
LUT_3D_SIZE 5
DOMAIN_MIN 0.0 0.0 0.0
DOMAIN_MAX 1.0 1.0 1.0
0.020480 0.030000 0.044280
0.223657 0.044053 0.056647
0.426834 0.058106 0.069013
0.630012 0.072159 0.081380
0.833189 0.086212 0.093747
0.050276 0.245589 0.068558
0.253453 0.259642 0.080925
0.456631 0.273695 0.093292
0.659808 0.287748 0.105658
0.862985 0.301801 0.118025
0.080072 0.461178 0.092837
0.283249 0.475231 0.105203
0.486427 0.489284 0.117570
0.690205 0.503337 0.129396
0.895911 0.517390 0.139486
0.109868 0.676767 0.117115
0.313553 0.690820 0.129025
0.519260 0.704873 0.139115
0.724493 0.718926 0.149916
0.929075 0.732979 0.161692
0.142609 0.892356 0.138744
0.347883 0.906409 0.149483
0.552465 0.920462 0.161259
0.757048 0.934515 0.173036
0.961630 0.948568 0.184812
0.026390 0.035472 0.241095
0.229567 0.049525 0.253462
0.432744 0.063578 0.265829
0.635921 0.077631 0.278195
0.839099 0.091684 0.290562
0.056186 0.251061 0.265374
0.259363 0.265114 0.277740
0.462540 0.279167 0.290107
0.665718 0.293220 0.302474
0.868895 0.307273 0.314840
0.085982 0.466650 0.289652
0.289159 0.480703 0.302019
0.492336 0.494756 0.314385
0.697099 0.508809 0.325325
0.902806 0.522862 0.335415
0.115778 0.682239 0.313930
0.320448 0.696292 0.324954
0.526155 0.710345 0.335044
0.730950 0.724398 0.346502
0.935532 0.738451 0.358278
0.149503 0.897828 0.334673
0.354340 0.911881 0.346068
0.558922 0.925934 0.357845
0.763505 0.939987 0.369621
0.968087 0.954040 0.381398
0.032300 0.040944 0.437911
0.235477 0.054997 0.450277
0.438654 0.069050 0.462644
0.641831 0.083103 0.475011
0.845008 0.097156 0.487377
0.062096 0.256533 0.462189
0.265273 0.270586 0.474556
0.468450 0.284639 0.486922
0.671627 0.298692 0.499289
0.874939 0.312745 0.511535
0.091892 0.472122 0.486467
0.295069 0.486175 0.498834
0.498287 0.500228 0.511164
0.703994 0.514281 0.521254
0.909434 0.528334 0.531744
0.121688 0.687711 0.510746
0.327343 0.701764 0.520883
0.532824 0.715817 0.531311
0.737407 0.729870 0.543087
0.941989 0.743923 0.554863
0.156214 0.903300 0.530877
0.360797 0.917353 0.542654
0.565379 0.931406 0.554430
0.769962 0.945459 0.566207
0.974544 0.959512 0.577983
0.038209 0.046416 0.634726
0.241387 0.060469 0.647093
0.444564 0.074522 0.659459
0.647741 0.088575 0.671826
0.850918 0.102628 0.684193
0.068005 0.262005 0.659004
0.271183 0.276058 0.671371
0.474360 0.290111 0.683738
0.677537 0.304164 0.696104
0.881833 0.318217 0.707464
0.097802 0.477594 0.683283
0.300979 0.491647 0.695649
0.505182 0.505700 0.707093
0.710889 0.519753 0.717183
0.915891 0.533806 0.728329
0.128531 0.693183 0.706721
0.334237 0.707236 0.716811
0.539281 0.721289 0.727896
0.743864 0.735342 0.739673
0.948446 0.749395 0.751449
0.162671 0.908772 0.727463
0.367254 0.922825 0.739239
0.571836 0.936878 0.751016
0.776419 0.950931 0.762792
0.981001 0.964984 0.774569
0.044119 0.051888 0.831541
0.247296 0.065941 0.843908
0.450474 0.079994 0.856275
0.653651 0.094047 0.868641
0.856828 0.108100 0.881008
0.073915 0.267477 0.855820
0.277092 0.281530 0.868186
0.480270 0.295583 0.880553
0.683447 0.309636 0.892920
0.888728 0.323689 0.903393
0.103711 0.483066 0.880098
0.306889 0.497119 0.892465
0.512077 0.511172 0.903021
0.717765 0.525225 0.913139
0.922348 0.539278 0.924915
0.135425 0.698655 0.902650
0.341132 0.712708 0.912740
0.545738 0.726761 0.924482
0.750321 0.740814 0.936258
0.954903 0.754867 0.948035
0.169128 0.914244 0.924048
0.373710 0.928297 0.935825
0.578293 0.942350 0.947601
0.782876 0.956403 0.959378
0.987458 0.970456 0.971154
