app/src/main/assets/lut/hasselblad_xpan.cube
TITLE "Filmic XPan"
LUT_3D_SIZE 9
DOMAIN_MIN 0.0 0.0 0.0
DOMAIN_MAX 1.0 1.0 1.0
0.020480 0.030000 0.044280
0.122069 0.037026 0.050463
0.223657 0.044053 0.056647
0.325246 0.051079 0.062830
0.426834 0.058106 0.069013
0.528423 0.065132 0.075197
0.630012 0.072159 0.081380
0.731600 0.079185 0.087563
0.833189 0.086212 0.093747
0.035378 0.137794 0.056419
0.136967 0.144821 0.062602
0.238555 0.151847 0.068786
0.340144 0.158874 0.074969
0.441733 0.165900 0.081152
0.543321 0.172927 0.087336
0.644910 0.179953 0.093519
0.746498 0.186980 0.099702
0.848087 0.194006 0.105886
0.050276 0.245589 0.068558
0.151865 0.252615 0.074742
0.253453 0.259642 0.080925
0.355042 0.266668 0.087108
0.456631 0.273695 0.093292
0.558219 0.280722 0.099475
0.659808 0.287748 0.105658
0.761396 0.294774 0.111842
0.862985 0.301801 0.118025
0.065174 0.353383 0.080697
0.166763 0.360410 0.086881
0.268351 0.367436 0.093064
0.369940 0.374463 0.099247
0.471529 0.381489 0.105431
0.573117 0.388516 0.111614
0.674706 0.395542 0.117797
0.776295 0.402569 0.123981
0.878530 0.409595 0.129582
0.080072 0.461178 0.092837
0.181661 0.468205 0.099020
0.283249 0.475231 0.105203
0.384838 0.482258 0.111387
0.486427 0.489284 0.117570
0.588015 0.496310 0.123753
0.690205 0.503337 0.129396
0.793058 0.510363 0.134441
0.895911 0.517390 0.139486
0.094970 0.568972 0.104976
0.196559 0.575999 0.111159
0.298148 0.583025 0.117342
0.399736 0.590052 0.123526
0.501879 0.597078 0.129210
0.604732 0.604105 0.134255
0.707586 0.611131 0.139300
0.810439 0.618158 0.144345
0.912798 0.625184 0.150133
0.109868 0.676767 0.117115
0.211457 0.683793 0.123298
0.313553 0.690820 0.129025
0.416407 0.697846 0.134070
0.519260 0.704873 0.139115
0.622113 0.711899 0.144160
0.724493 0.718926 0.149916
0.826784 0.725952 0.155804
0.929075 0.732979 0.161692
0.125227 0.784562 0.128839
0.228081 0.791588 0.133884
0.330934 0.798615 0.138929
0.433788 0.805641 0.143974
0.536188 0.812667 0.149699
0.638479 0.819694 0.155588
0.740770 0.826720 0.161476
0.843061 0.833747 0.167364
0.945353 0.840774 0.173252
0.142609 0.892356 0.138744
0.245462 0.899382 0.143789
0.347883 0.906409 0.149483
0.450174 0.913435 0.155371
0.552465 0.920462 0.161259
0.654756 0.927488 0.167147
0.757048 0.934515 0.173036
0.859339 0.941542 0.178924
0.961630 0.948568 0.184812
0.023435 0.032736 0.142688
0.125023 0.039762 0.148871
0.226612 0.046789 0.155054
0.328201 0.053815 0.161238
0.429789 0.060842 0.167421
0.531378 0.067868 0.173604
0.632967 0.074895 0.179788
0.734555 0.081921 0.185971
0.836144 0.088948 0.192154
0.038333 0.140530 0.154827
0.139922 0.147557 0.161010
0.241510 0.154583 0.167193
0.343099 0.161610 0.173377
0.444687 0.168636 0.179560
0.546276 0.175663 0.185743
0.647865 0.182689 0.191927
0.749453 0.189716 0.198110
0.851042 0.196742 0.204293
0.053231 0.248325 0.166966
0.154820 0.255352 0.173149
0.256408 0.262378 0.179333
0.357997 0.269404 0.185516
0.459585 0.276431 0.191699
0.561174 0.283458 0.197883
0.662763 0.290484 0.204066
0.764351 0.297511 0.210249
0.865940 0.304537 0.216433
0.068129 0.356119 0.179105
0.169718 0.363146 0.185288
0.271306 0.370172 0.191472
0.372895 0.377199 0.197655
0.474484 0.384225 0.203838
0.576072 0.391252 0.210022
0.677661 0.398278 0.216205
0.779249 0.405305 0.222388
0.881978 0.412331 0.227546
0.083027 0.463914 0.191244
0.184616 0.470940 0.197428
0.286204 0.477967 0.203611
0.387793 0.484993 0.209794
0.489382 0.492020 0.215978
0.590970 0.499047 0.222161
0.693652 0.506073 0.227360
0.796505 0.513100 0.232405
0.899359 0.520126 0.237450
0.097925 0.571708 0.203383
0.199514 0.578735 0.209567
0.301102 0.585761 0.215750
0.402691 0.592788 0.221933
0.505326 0.599814 0.227175
0.608180 0.606841 0.232220
0.711033 0.613868 0.237265
0.813735 0.620894 0.242537
0.916026 0.627920 0.248425
0.112823 0.679503 0.215523
0.214412 0.686529 0.221706
0.317001 0.693556 0.226989
0.419854 0.700582 0.232034
0.522707 0.707609 0.237079
0.625430 0.714635 0.242321
0.727721 0.721662 0.248209
0.830012 0.728688 0.254097
0.932304 0.735715 0.259985
0.128675 0.787297 0.226804
0.231528 0.794324 0.231849
0.334382 0.801350 0.236894
0.437125 0.808377 0.242104
0.539416 0.815403 0.247992
0.641707 0.822430 0.253880
0.743999 0.829457 0.259769
0.846290 0.836483 0.265657
0.948581 0.843510 0.271545
0.146056 0.895092 0.236708
0.248820 0.902119 0.241887
0.351111 0.909145 0.247776
0.453402 0.916171 0.253664
0.555694 0.923198 0.259552
0.657985 0.930225 0.265440
0.760276 0.937251 0.271328
0.862567 0.944277 0.277217
0.964859 0.951304 0.283105
0.026390 0.035472 0.241095
0.127978 0.042498 0.247279
0.229567 0.049525 0.253462
0.331156 0.056551 0.259645
0.432744 0.063578 0.265829
0.534333 0.070604 0.272012
0.635921 0.077631 0.278195
0.737510 0.084657 0.284379
0.839099 0.091684 0.290562
0.041288 0.143266 0.253235
0.142876 0.150293 0.259418
0.244465 0.157320 0.265601
0.346054 0.164346 0.271784
0.447642 0.171372 0.277968
0.549231 0.178399 0.284151
0.650820 0.185425 0.290334
0.752408 0.192452 0.296518
0.853997 0.199478 0.302701
0.056186 0.251061 0.265374
0.157774 0.258088 0.271557
0.259363 0.265114 0.277740
0.360952 0.272141 0.283924
0.462540 0.279167 0.290107
0.564129 0.286193 0.296290
0.665718 0.293220 0.302474
0.767306 0.300247 0.308657
0.868895 0.307273 0.314840
0.071084 0.358855 0.277513
0.172673 0.365882 0.283696
0.274261 0.372908 0.289879
0.375850 0.379935 0.296063
0.477438 0.386961 0.302246
0.579027 0.393988 0.308429
0.680616 0.401014 0.314613
0.782572 0.408041 0.320465
0.885425 0.415067 0.325510
0.085982 0.466650 0.289652
0.187571 0.473677 0.295835
0.289159 0.480703 0.302019
0.390748 0.487729 0.308202
0.492336 0.494756 0.314385
0.594246 0.501783 0.320280
0.697099 0.508809 0.325325
0.799953 0.515836 0.330370
0.902806 0.522862 0.335415
0.100880 0.574445 0.301791
0.202469 0.581471 0.307974
0.304057 0.588498 0.314158
0.405920 0.595524 0.320094
0.508774 0.602550 0.325139
0.611627 0.609577 0.330184
0.714480 0.616603 0.335229
0.816963 0.623630 0.340830
0.919255 0.630656 0.346718
0.115778 0.682239 0.313930
0.217595 0.689265 0.319909
0.320448 0.696292 0.324954
0.423301 0.703318 0.329999
0.526155 0.710345 0.335044
0.628658 0.717371 0.340613
0.730950 0.724398 0.346502
0.833241 0.731424 0.352390
0.935532 0.738451 0.358278
0.132122 0.790034 0.324768
0.234976 0.797060 0.329813
0.337829 0.804087 0.334858
0.440353 0.811113 0.340397
0.542645 0.818140 0.346285
0.644936 0.825166 0.352173
0.747227 0.832193 0.358061
0.849518 0.839219 0.363950
0.951810 0.846245 0.369838
0.149503 0.897828 0.334673
0.252048 0.904855 0.340180
0.354340 0.911881 0.346068
0.456631 0.918907 0.351956
0.558922 0.925934 0.357845
0.661213 0.932960 0.363733
0.763505 0.939987 0.369621
0.865796 0.947013 0.375509
0.968087 0.954040 0.381398
0.029345 0.038208 0.339503
0.130933 0.045234 0.345686
0.232522 0.052261 0.351870
0.334110 0.059287 0.358053
0.435699 0.066314 0.364236
0.537288 0.073340 0.370420
0.638876 0.080367 0.376603
0.740465 0.087393 0.382786
0.842054 0.094420 0.388970
0.044243 0.146002 0.351642
0.145831 0.153029 0.357826
0.247420 0.160055 0.364009
0.349009 0.167082 0.370192
0.450597 0.174108 0.376375
0.552186 0.181135 0.382559
0.653774 0.188161 0.388742
0.755363 0.195188 0.394925
0.856952 0.202214 0.401109
0.059141 0.253797 0.363781
0.160729 0.260823 0.369965
0.262318 0.267850 0.376148
0.363907 0.274876 0.382331
0.465495 0.281903 0.388515
0.567084 0.288930 0.394698
0.668672 0.295956 0.400881
0.770261 0.302982 0.407065
0.871850 0.310009 0.413248
0.074039 0.361591 0.375921
0.175627 0.368618 0.382104
0.277216 0.375644 0.388287
0.378805 0.382671 0.394470
0.480393 0.389697 0.400654
0.581982 0.396724 0.406837
0.683571 0.403750 0.413020
0.786019 0.410777 0.418430
0.888872 0.417803 0.423475
0.088937 0.469386 0.388060
0.190525 0.476413 0.394243
0.292114 0.483439 0.400426
0.393703 0.490465 0.406610
0.495291 0.497492 0.412793
0.597693 0.504518 0.418244
0.700547 0.511545 0.423289
0.803400 0.518571 0.428334
0.906206 0.525598 0.433451
0.103835 0.577180 0.400199
0.205424 0.584207 0.406382
0.307012 0.591233 0.412565
0.409368 0.598260 0.418059
0.512221 0.605286 0.423104
0.615074 0.612313 0.428149
0.717901 0.619339 0.433235
0.820192 0.626366 0.439123
0.922483 0.633392 0.445011
0.118733 0.684975 0.412338
0.221042 0.692001 0.417873
0.323895 0.699028 0.422918
0.426749 0.706054 0.427963
0.529596 0.713081 0.433018
0.631887 0.720107 0.438906
0.734178 0.727134 0.444794
0.836469 0.734160 0.450682
0.938761 0.741187 0.456571
0.135570 0.792770 0.422733
0.238423 0.799796 0.427778
0.341276 0.806822 0.432823
0.443582 0.813849 0.438689
0.545873 0.820875 0.444578
0.648164 0.827902 0.450466
0.750456 0.834928 0.456354
0.852747 0.841955 0.462242
0.955038 0.848982 0.468130
0.152951 0.900564 0.432637
0.255277 0.907590 0.438473
0.357568 0.914617 0.444361
0.459859 0.921643 0.450249
0.562151 0.928670 0.456137
0.664442 0.935696 0.462026
0.766733 0.942723 0.467914
0.869024 0.949750 0.473802
0.971316 0.956776 0.479690
0.032300 0.040944 0.437911
0.133888 0.047970 0.444094
0.235477 0.054997 0.450277
0.337065 0.062023 0.456461
0.438654 0.069050 0.462644
0.540243 0.076076 0.468827
0.641831 0.083103 0.475011
0.743420 0.090130 0.481194
0.845008 0.097156 0.487377
0.047198 0.148738 0.450050
0.148786 0.155765 0.456233
0.250375 0.162791 0.462417
0.351963 0.169818 0.468600
0.453552 0.176844 0.474783
0.555141 0.183871 0.480966
0.656729 0.190897 0.487150
0.758318 0.197924 0.493333
0.859907 0.204950 0.499516
0.062096 0.256533 0.462189
0.163684 0.263560 0.468372
0.265273 0.270586 0.474556
0.366861 0.277612 0.480739
0.468450 0.284639 0.486922
0.570039 0.291666 0.493106
0.671627 0.298692 0.499289
0.773216 0.305719 0.505472
0.874939 0.312745 0.511535
0.076994 0.364327 0.474328
0.178582 0.371354 0.480512
0.280171 0.378380 0.486695
0.381760 0.385407 0.492878
0.483348 0.392433 0.499061
0.584937 0.399460 0.505245
0.686613 0.406486 0.511349
0.789466 0.413513 0.516394
0.892320 0.420539 0.521439
0.091892 0.472122 0.486467
0.193480 0.479148 0.492651
0.295069 0.486175 0.498834
0.396658 0.493202 0.505017
0.498287 0.500228 0.511164
0.601141 0.507254 0.516209
0.703994 0.514281 0.521254
0.806847 0.521308 0.526299
0.909434 0.528334 0.531744
0.106790 0.579916 0.498607
0.208378 0.586943 0.504790
0.309967 0.593969 0.510973
0.412815 0.600996 0.516023
0.515668 0.608022 0.521068
0.618522 0.615049 0.526113
0.721129 0.622076 0.531527
0.823420 0.629102 0.537415
0.925712 0.636128 0.543304
0.121688 0.687711 0.510746
0.224489 0.694737 0.515838
0.327343 0.701764 0.520883
0.430196 0.708790 0.525928
0.532824 0.715817 0.531311
0.635115 0.722843 0.537199
0.737407 0.729870 0.543087
0.839698 0.736896 0.548975
0.941989 0.743923 0.554863
0.139017 0.795505 0.520697
0.241870 0.802532 0.525742
0.344519 0.809558 0.531094
0.446810 0.816585 0.536982
0.549102 0.823611 0.542870
0.651393 0.830638 0.548759
0.753684 0.837665 0.554647
0.855975 0.844691 0.560535
0.958267 0.851718 0.566423
0.156214 0.903300 0.530877
0.258505 0.910327 0.536766
0.360797 0.917353 0.542654
0.463088 0.924379 0.548542
0.565379 0.931406 0.554430
0.667670 0.938433 0.560318
0.769962 0.945459 0.566207
0.872253 0.952485 0.572095
0.974544 0.959512 0.577983
0.035254 0.043680 0.536318
0.136843 0.050706 0.542502
0.238432 0.057733 0.548685
0.340020 0.064759 0.554868
0.441609 0.071786 0.561052
0.543197 0.078812 0.567235
0.644786 0.085839 0.573418
0.746375 0.092865 0.579602
0.847963 0.099892 0.585785
0.050152 0.151474 0.548458
0.151741 0.158501 0.554641
0.253330 0.165527 0.560824
0.354918 0.172554 0.567008
0.456507 0.179580 0.573191
0.558096 0.186607 0.579374
0.659684 0.193633 0.585557
0.761273 0.200660 0.591741
0.862861 0.207686 0.597924
0.065051 0.259269 0.560597
0.166639 0.266296 0.566780
0.268228 0.273322 0.572963
0.369816 0.280349 0.579147
0.471405 0.287375 0.585330
0.572994 0.294401 0.591513
0.674582 0.301428 0.597697
0.776171 0.308454 0.603880
0.878386 0.315481 0.609499
0.079949 0.367063 0.572736
0.181537 0.374090 0.578919
0.283126 0.381116 0.585103
0.384714 0.388143 0.591286
0.486303 0.395169 0.597469
0.587892 0.402196 0.603652
0.690060 0.409222 0.609314
0.792914 0.416249 0.614359
0.895767 0.423275 0.619404
0.094847 0.474858 0.584875
0.196435 0.481884 0.591058
0.298024 0.488911 0.597242
0.399612 0.495937 0.603425
0.501735 0.502964 0.609128
0.604588 0.509991 0.614173
0.707441 0.517017 0.619218
0.810295 0.524043 0.624263
0.912663 0.531070 0.630037
0.109745 0.582652 0.597014
0.211333 0.589679 0.603198
0.313409 0.596705 0.608943
0.416262 0.603732 0.613988
0.519116 0.610758 0.619033
0.621969 0.617785 0.624078
0.724358 0.624811 0.629820
0.826649 0.631838 0.635708
0.928940 0.638864 0.641596
0.125083 0.690447 0.608757
0.227937 0.697473 0.613802
0.330790 0.704500 0.618847
0.433643 0.711526 0.623892
0.536053 0.718553 0.629603
0.638344 0.725579 0.635492
0.740635 0.732606 0.641380
0.842926 0.739632 0.647268
0.945218 0.746659 0.653156
0.142464 0.798242 0.618661
0.245318 0.805268 0.623706
0.347748 0.812295 0.629387
0.450039 0.819321 0.635275
0.552330 0.826348 0.641163
0.654621 0.833374 0.647051
0.756913 0.840400 0.652940
0.859204 0.847427 0.658828
0.961495 0.854453 0.664716
0.159442 0.906036 0.629170
0.261734 0.913062 0.635058
0.364025 0.920089 0.640947
0.466316 0.927115 0.646835
0.568608 0.934142 0.652723
0.670899 0.941168 0.658611
0.773190 0.948195 0.664499
0.875481 0.955221 0.670388
0.977773 0.962248 0.676276
0.038209 0.046416 0.634726
0.139798 0.053442 0.640909
0.241387 0.060469 0.647093
0.342975 0.067495 0.653276
0.444564 0.074522 0.659459
0.546152 0.081548 0.665643
0.647741 0.088575 0.671826
0.749330 0.095601 0.678009
0.850918 0.102628 0.684193
0.053107 0.154210 0.646865
0.154696 0.161237 0.653049
0.256285 0.168263 0.659232
0.357873 0.175290 0.665415
0.459462 0.182316 0.671599
0.561050 0.189343 0.677782
0.662639 0.196369 0.683965
0.764228 0.203396 0.690148
0.865816 0.210422 0.696332
0.068005 0.262005 0.659004
0.169594 0.269032 0.665188
0.271183 0.276058 0.671371
0.372771 0.283085 0.677554
0.474360 0.290111 0.683738
0.575948 0.297137 0.689921
0.677537 0.304164 0.696104
0.779126 0.311191 0.702288
0.881833 0.318217 0.707464
0.082903 0.369799 0.671144
0.184492 0.376826 0.677327
0.286081 0.383852 0.683510
0.387669 0.390879 0.689694
0.489258 0.397905 0.695877
0.590847 0.404932 0.702060
0.693508 0.411959 0.707278
0.796361 0.418985 0.712323
0.899214 0.426011 0.717368
0.097802 0.477594 0.683283
0.199390 0.484621 0.689466
0.300979 0.491647 0.695649
0.402567 0.498673 0.701833
0.505182 0.505700 0.707093
0.608035 0.512726 0.712138
0.710889 0.519753 0.717183
0.813600 0.526779 0.722441
0.915891 0.533806 0.728329
0.112700 0.585388 0.695422
0.214288 0.592415 0.701605
0.316856 0.599441 0.706907
0.419710 0.606468 0.711952
0.522563 0.613494 0.716997
0.625295 0.620521 0.722225
0.727586 0.627547 0.728113
0.829877 0.634574 0.734001
0.932169 0.641600 0.739889
0.128531 0.693183 0.706721
0.231384 0.700209 0.711766
0.334237 0.707236 0.716811
0.436990 0.714262 0.722008
0.539281 0.721289 0.727896
0.641572 0.728315 0.733784
0.743864 0.735342 0.739673
0.846155 0.742368 0.745561
0.948446 0.749395 0.751449
0.145912 0.800978 0.716626
0.248685 0.808004 0.721791
0.350976 0.815030 0.727680
0.453267 0.822057 0.733568
0.555559 0.829083 0.739456
0.657850 0.836110 0.745344
0.760141 0.843136 0.751232
0.862432 0.850163 0.757121
0.964724 0.857190 0.763009
0.162671 0.908772 0.727463
0.264962 0.915798 0.733351
0.367254 0.922825 0.739239
0.469545 0.929851 0.745128
0.571836 0.936878 0.751016
0.674127 0.943904 0.756904
0.776419 0.950931 0.762792
0.878710 0.957958 0.768680
0.981001 0.964984 0.774569
0.041164 0.049152 0.733134
0.142753 0.056178 0.739317
0.244341 0.063205 0.745500
0.345930 0.070231 0.751684
0.447519 0.077258 0.757867
0.549107 0.084284 0.764050
0.650696 0.091311 0.770234
0.752285 0.098337 0.776417
0.853873 0.105364 0.782600
0.056062 0.156946 0.745273
0.157651 0.163973 0.751456
0.259239 0.170999 0.757640
0.360828 0.178026 0.763823
0.462417 0.185052 0.770006
0.564005 0.192079 0.776190
0.665594 0.199105 0.782373
0.767183 0.206132 0.788556
0.868771 0.213158 0.794739
0.070960 0.264741 0.757412
0.172549 0.271767 0.763595
0.274138 0.278794 0.769779
0.375726 0.285820 0.775962
0.477315 0.292847 0.782145
0.578903 0.299874 0.788329
0.680492 0.306900 0.794512
0.782427 0.313926 0.800383
0.885281 0.320953 0.805428
0.085858 0.372535 0.769551
0.187447 0.379562 0.775735
0.289036 0.386588 0.781918
0.390624 0.393615 0.788101
0.492213 0.400641 0.794285
0.594102 0.407668 0.800198
0.696955 0.414694 0.805243
0.799808 0.421721 0.810288
0.902662 0.428747 0.815333
0.100756 0.480330 0.781690
0.202345 0.487356 0.787874
0.303934 0.494383 0.794057
0.405776 0.501409 0.800012
0.508629 0.508436 0.805057
0.611483 0.515463 0.810102
0.714336 0.522489 0.815147
0.816828 0.529516 0.820734
0.919120 0.536542 0.826622
0.115654 0.588124 0.793830
0.217450 0.595151 0.799826
0.320304 0.602177 0.804871
0.423157 0.609204 0.809916
0.526010 0.616230 0.814961
0.628523 0.623257 0.820517
0.730815 0.630283 0.826406
0.833106 0.637310 0.832294
0.935397 0.644336 0.838182
0.131978 0.695919 0.804686
0.234831 0.702945 0.809731
0.337685 0.709972 0.814776
0.440218 0.716998 0.820301
0.542509 0.724025 0.826189
0.644801 0.731051 0.832077
0.747092 0.738078 0.837965
0.849383 0.745104 0.843854
0.951675 0.752131 0.849742
0.149359 0.803713 0.814590
0.251913 0.810740 0.820084
0.354204 0.817767 0.825972
0.456496 0.824793 0.831861
0.558787 0.831820 0.837749
0.661078 0.838846 0.843637
0.763370 0.845873 0.849525
0.865661 0.852899 0.855413
0.967952 0.859926 0.861302
0.165899 0.911508 0.825756
0.268191 0.918535 0.831644
0.370482 0.925561 0.837532
0.472773 0.932588 0.843420
0.575065 0.939614 0.849309
0.677356 0.946640 0.855197
0.779647 0.953667 0.861085
0.881938 0.960693 0.866973
0.984230 0.967720 0.872861
0.044119 0.051888 0.831541
0.145708 0.058914 0.837725
0.247296 0.065941 0.843908
0.348885 0.072967 0.850091
0.450474 0.079994 0.856275
0.552062 0.087020 0.862458
0.653651 0.094047 0.868641
0.755239 0.101073 0.874825
0.856828 0.108100 0.881008
0.059017 0.159682 0.843681
0.160606 0.166709 0.849864
0.262194 0.173735 0.856047
0.363783 0.180762 0.862231
0.465372 0.187788 0.868414
0.566960 0.194815 0.874597
0.668549 0.201841 0.880781
0.770137 0.208868 0.886964
0.871726 0.215894 0.893147
0.073915 0.267477 0.855820
0.175504 0.274504 0.862003
0.277092 0.281530 0.868186
0.378681 0.288556 0.874370
0.480270 0.295583 0.880553
0.581858 0.302609 0.886736
0.683447 0.309636 0.892920
0.785875 0.316662 0.898348
0.888728 0.323689 0.903393
0.088813 0.375271 0.867959
0.190402 0.382298 0.874142
0.291990 0.389324 0.880326
0.393579 0.396351 0.886509
0.495168 0.403377 0.892692
0.597549 0.410404 0.898162
0.700402 0.417430 0.903207
0.803256 0.424457 0.908252
0.906071 0.431483 0.913355
0.103711 0.483066 0.880098
0.205300 0.490092 0.886281
0.306889 0.497119 0.892465
0.409223 0.504146 0.897976
0.512077 0.511172 0.903021
0.614930 0.518199 0.908067
0.717765 0.525225 0.913139
0.820057 0.532251 0.919027
0.922348 0.539278 0.924915
0.118609 0.590861 0.892237
0.220898 0.597887 0.897791
0.323751 0.604913 0.902836
0.426604 0.611940 0.907881
0.529458 0.618966 0.912926
0.631752 0.625993 0.918810
0.734043 0.633019 0.924698
0.836334 0.640046 0.930587
0.938626 0.647072 0.936475
0.135425 0.698655 0.902650
0.238279 0.705681 0.907695
0.341132 0.712708 0.912740
0.443447 0.719734 0.918594
0.545738 0.726761 0.924482
0.648029 0.733787 0.930370
0.750321 0.740814 0.936258
0.852612 0.747840 0.942146
0.954903 0.754867 0.948035
0.152806 0.806450 0.912555
0.255142 0.813476 0.918377
0.357433 0.820503 0.924265
0.459724 0.827529 0.930153
0.562015 0.834556 0.936042
0.664307 0.841582 0.941930
0.766598 0.848608 0.947818
0.868889 0.855635 0.953706
0.971181 0.862661 0.959594
0.169128 0.914244 0.924048
0.271419 0.921270 0.929937
0.373710 0.928297 0.935825
0.476002 0.935323 0.941713
0.578293 0.942350 0.947601
0.680584 0.949376 0.953490
0.782876 0.956403 0.959378
0.885167 0.963429 0.965266
0.987458 0.970456 0.971154
