app/src/main/assets/lut/leica_chrome.cube
TITLE "Filmic Leica Chrome"
LUT_3D_SIZE 17
DOMAIN_MIN 0.0 0.0 0.0
DOMAIN_MAX 1.0 1.0 1.0
0.000000 0.004000 0.022000
0.000000 0.004000 0.022000
0.039951 0.003904 0.021471
0.126534 0.003751 0.020632
0.211361 0.003893 0.019170
0.294333 0.004145 0.017491
0.375604 0.004391 0.015848
0.455741 0.004633 0.014227
0.535311 0.004874 0.012617
0.614881 0.005115 0.011008
0.695018 0.005358 0.009387
0.776289 0.005604 0.007743
0.859261 0.005855 0.006065
0.944359 0.006114 0.004341
1.000000 0.006380 0.002560
1.000000 0.006549 0.001435
1.000000 0.006549 0.001435
0.000000 0.004000 0.022000
0.000000 0.004000 0.022000
0.039951 0.003904 0.021471
0.126534 0.003751 0.020632
0.211361 0.003893 0.019170
0.294333 0.004145 0.017491
0.375604 0.004391 0.015848
0.455741 0.004633 0.014227
0.535311 0.004874 0.012617
0.614881 0.005115 0.011008
0.695018 0.005358 0.009387
0.776289 0.005604 0.007743
0.859261 0.005855 0.006065
0.944359 0.006114 0.004341
1.000000 0.006380 0.002560
1.000000 0.006549 0.001435
1.000000 0.006549 0.001435
0.000000 0.054104 0.020961
0.000000 0.054104 0.020961
0.039149 0.054008 0.020432
0.125818 0.054259 0.018686
0.210899 0.054517 0.016961
0.293716 0.054768 0.015283
0.374836 0.055014 0.013639
0.454824 0.055257 0.012019
0.534246 0.055498 0.010409
0.613668 0.055739 0.008800
0.693657 0.055982 0.007179
0.774776 0.056228 0.005535
0.857594 0.056479 0.003857
0.942675 0.056737 0.002133
1.000000 0.057004 0.000351
1.000000 0.057172 0.000000
1.000000 0.057172 0.000000
0.000000 0.133998 0.018094
0.000000 0.133998 0.018094
0.042569 0.134167 0.016970
0.123987 0.134433 0.015188
0.208232 0.134691 0.013464
0.291049 0.134943 0.011786
0.372169 0.135189 0.010142
0.452157 0.135432 0.008521
0.531579 0.135673 0.006912
0.611001 0.135914 0.005302
0.690989 0.136156 0.003682
0.772109 0.136402 0.002038
0.854927 0.136654 0.000360
0.940007 0.136912 0.000000
1.000000 0.137179 0.000000
1.000000 0.137347 0.000000
1.000000 0.137347 0.000000
0.000000 0.211592 0.014710
0.000000 0.211592 0.014710
0.045926 0.211761 0.013585
0.127344 0.212028 0.011804
0.206142 0.212286 0.010079
0.288468 0.212537 0.008401
0.369587 0.212783 0.006757
0.449575 0.213026 0.005137
0.528998 0.213267 0.003527
0.608420 0.213508 0.001918
0.688408 0.213750 0.000297
0.769528 0.213997 0.000000
0.852345 0.214248 0.000000
0.937426 0.214506 0.000000
1.000000 0.214773 0.000000
1.000000 0.214941 0.000000
1.000000 0.214941 0.000000
0.000000 0.287122 0.011415
0.000000 0.287122 0.011415
0.049194 0.287291 0.010290
0.130612 0.287557 0.008509
0.209410 0.287816 0.006785
0.286111 0.288067 0.005107
0.367075 0.288313 0.003463
0.447063 0.288556 0.001842
0.526485 0.288797 0.000232
0.605907 0.289038 0.000000
0.685895 0.289280 0.000000
0.767015 0.289527 0.000000
0.849833 0.289778 0.000000
0.934913 0.290036 0.000000
1.000000 0.290303 0.000000
1.000000 0.290471 0.000000
1.000000 0.290471 0.000000
0.000987 0.361104 0.008188
0.000987 0.361104 0.008188
0.052396 0.361272 0.007063
0.133814 0.361539 0.005282
0.212611 0.361797 0.003558
0.289313 0.362049 0.001879
0.364614 0.362295 0.000236
0.444602 0.362537 0.000000
0.524024 0.362778 0.000000
0.603446 0.363019 0.000000
0.683434 0.363262 0.000000
0.764554 0.363508 0.000000
0.847371 0.363760 0.000000
0.932452 0.364018 0.000000
1.000000 0.364284 0.000000
1.000000 0.364181 0.000000
1.000000 0.364181 0.000000
0.004143 0.434054 0.005006
0.004143 0.434054 0.005006
0.055552 0.434222 0.003881
0.136970 0.434489 0.002100
0.215768 0.434747 0.000376
0.292469 0.434998 0.000000
0.367598 0.435244 0.000000
0.442175 0.435487 0.000000
0.521597 0.435728 0.000000
0.601019 0.435969 0.000000
0.681007 0.436212 0.000000
0.762127 0.436458 0.000000
0.844944 0.436709 0.000000
0.928702 0.436566 0.000000
1.000000 0.435994 0.000000
1.000000 0.435633 0.000000
1.000000 0.435633 0.000000
0.007278 0.506487 0.001846
0.007278 0.506487 0.001846
0.058686 0.506656 0.000721
0.140104 0.506922 0.000000
0.218902 0.507181 0.000000
0.295603 0.507432 0.000000
0.370733 0.507678 0.000000
0.444814 0.507921 0.000000
0.519187 0.508162 0.000000
0.598610 0.508403 0.000000
0.678598 0.508645 0.000000
0.758771 0.508604 0.000000
0.838986 0.508066 0.000000
0.921393 0.507512 0.000000
1.000000 0.506941 0.000000
1.000000 0.506580 0.000000
1.000000 0.506580 0.000000
0.010412 0.578921 0.000000
0.010412 0.578921 0.000000
0.061821 0.579089 0.000000
0.143239 0.579356 0.000000
0.222036 0.579614 0.000000
0.298738 0.579865 0.000000
0.373867 0.580111 0.000000
0.447948 0.580354 0.000000
0.521505 0.580595 0.000000
0.595416 0.580598 0.000000
0.672891 0.580078 0.000000
0.751462 0.579551 0.000000
0.831677 0.579012 0.000000
0.914085 0.578459 0.000000
0.999232 0.577888 0.000000
1.000000 0.577589 0.000000
1.000000 0.577589 0.000000
0.013569 0.651870 0.000000
0.013569 0.651870 0.000000
0.064977 0.652039 0.000000
0.146395 0.652306 0.000000
0.225193 0.652564 0.000000
0.301894 0.652815 0.000000
0.377023 0.653061 0.000000
0.450415 0.653083 0.000000
0.521605 0.652567 0.000000
0.592796 0.652050 0.000000
0.665530 0.651530 0.000000
0.744101 0.651003 0.000000
0.824316 0.650464 0.000000
0.906438 0.649997 0.000000
0.991080 0.649578 0.000000
1.000000 0.649313 0.000000
1.000000 0.649313 0.000000
0.016770 0.725852 0.000000
0.016770 0.725852 0.000000
0.068179 0.726021 0.000000
0.149597 0.726287 0.000000
0.228394 0.726545 0.000000
0.304462 0.726594 0.000000
0.377173 0.726066 0.000000
0.448871 0.725546 0.000000
0.520061 0.725030 0.000000
0.591251 0.724514 0.000000
0.662948 0.723993 0.000000
0.736400 0.723537 0.000000
0.816139 0.723142 0.000000
0.898056 0.722736 0.000000
0.982698 0.722317 0.000000
1.000000 0.722053 0.000000
1.000000 0.722053 0.000000
0.020038 0.801382 0.000000
0.020038 0.801382 0.000000
0.071447 0.801550 0.000000
0.152389 0.801665 0.000000
0.228651 0.801112 0.000000
0.302885 0.800573 0.000000
0.375596 0.800046 0.000000
0.447294 0.799526 0.000000
0.518484 0.799009 0.000000
0.589454 0.798567 0.000000
0.660735 0.798185 0.000000
0.733025 0.797798 0.000000
0.807581 0.797404 0.000000
0.889499 0.796998 0.000000
0.974141 0.796579 0.000000
1.000000 0.796314 0.000000
1.000000 0.796314 0.000000
0.022216 0.878599 0.000000
0.022216 0.878599 0.000000
0.071971 0.878238 0.000000
0.150769 0.877666 0.000000
0.227031 0.877113 0.000000
0.301265 0.876575 0.000000
0.373976 0.876047 0.000000
0.445411 0.875615 0.000000
0.516188 0.875236 0.000000
0.586965 0.874858 0.000000
0.658246 0.874476 0.000000
0.730536 0.874089 0.000000
0.804339 0.873695 0.000000
0.880708 0.873289 0.000000
0.965350 0.872870 0.000000
1.000000 0.872605 0.000000
1.000000 0.872605 0.000000
0.020542 0.957128 0.000000
0.020542 0.957128 0.000000
0.070297 0.956767 0.000000
0.149095 0.956195 0.000000
0.225357 0.955642 0.000000
0.299268 0.955211 0.000000
0.371558 0.954824 0.000000
0.442839 0.954443 0.000000
0.513616 0.954064 0.000000
0.584393 0.953686 0.000000
0.655675 0.953304 0.000000
0.727964 0.952917 0.000000
0.801767 0.952522 0.000000
0.877587 0.952117 0.000000
0.956266 0.951698 0.000000
1.000000 0.951433 0.000000
1.000000 0.951433 0.000000
0.019485 1.000000 0.000000
0.019485 1.000000 0.000000
0.069240 1.000000 0.000000
0.148022 1.000000 0.000000
0.223842 1.000000 0.000000
0.297644 1.000000 0.000000
0.369934 1.000000 0.000000
0.441215 1.000000 0.000000
0.511992 1.000000 0.000000
0.582770 1.000000 0.000000
0.654051 1.000000 0.000000
0.726341 1.000000 0.000000
0.800143 1.000000 0.000000
0.875963 1.000000 0.000000
0.954304 1.000000 0.000000
1.000000 1.000000 0.000000
1.000000 1.000000 0.000000
0.019485 1.000000 0.000000
0.019485 1.000000 0.000000
0.069240 1.000000 0.000000
0.148022 1.000000 0.000000
0.223842 1.000000 0.000000
0.297644 1.000000 0.000000
0.369934 1.000000 0.000000
0.441215 1.000000 0.000000
0.511992 1.000000 0.000000
0.582770 1.000000 0.000000
0.654051 1.000000 0.000000
0.726341 1.000000 0.000000
0.800143 1.000000 0.000000
0.875963 1.000000 0.000000
0.954304 1.000000 0.000000
1.000000 1.000000 0.000000
1.000000 1.000000 0.000000
0.000000 0.004000 0.022000
0.000000 0.004000 0.022000
0.039951 0.003904 0.021471
0.126534 0.003751 0.020632
0.211361 0.003893 0.019170
0.294333 0.004145 0.017491
0.375604 0.004391 0.015848
0.455741 0.004633 0.014227
0.535311 0.004874 0.012617
0.614881 0.005115 0.011008
0.695018 0.005358 0.009387
0.776289 0.005604 0.007743
0.859261 0.005855 0.006065
0.944359 0.006114 0.004341
1.000000 0.006380 0.002560
1.000000 0.006549 0.001435
1.000000 0.006549 0.001435
0.000000 0.004000 0.022000
0.000000 0.004000 0.022000
0.039951 0.003904 0.021471
0.126534 0.003751 0.020632
0.211361 0.003893 0.019170
0.294333 0.004145 0.017491
0.375604 0.004391 0.015848
0.455741 0.004633 0.014227
0.535311 0.004874 0.012617
0.614881 0.005115 0.011008
0.695018 0.005358 0.009387
0.776289 0.005604 0.007743
0.859261 0.005855 0.006065
0.944359 0.006114 0.004341
1.000000 0.006380 0.002560
1.000000 0.006549 0.001435
1.000000 0.006549 0.001435
0.000000 0.054104 0.020961
0.000000 0.054104 0.020961
0.039149 0.054008 0.020432
0.125818 0.054259 0.018686
0.210899 0.054517 0.016961
0.293716 0.054768 0.015283
0.374836 0.055014 0.013639
0.454824 0.055257 0.012019
0.534246 0.055498 0.010409
0.613668 0.055739 0.008800
0.693657 0.055982 0.007179
0.774776 0.056228 0.005535
0.857594 0.056479 0.003857
0.942675 0.056737 0.002133
1.000000 0.057004 0.000351
1.000000 0.057172 0.000000
1.000000 0.057172 0.000000
0.000000 0.133998 0.018094
0.000000 0.133998 0.018094
0.042569 0.134167 0.016970
0.123987 0.134433 0.015188
0.208232 0.134691 0.013464
0.291049 0.134943 0.011786
0.372169 0.135189 0.010142
0.452157 0.135432 0.008521
0.531579 0.135673 0.006912
0.611001 0.135914 0.005302
0.690989 0.136156 0.003682
0.772109 0.136402 0.002038
0.854927 0.136654 0.000360
0.940007 0.136912 0.000000
1.000000 0.137179 0.000000
1.000000 0.137347 0.000000
1.000000 0.137347 0.000000
0.000000 0.211592 0.014710
0.000000 0.211592 0.014710
0.045926 0.211761 0.013585
0.127344 0.212028 0.011804
0.206142 0.212286 0.010079
0.288468 0.212537 0.008401
0.369587 0.212783 0.006757
0.449575 0.213026 0.005137
0.528998 0.213267 0.003527
0.608420 0.213508 0.001918
0.688408 0.213750 0.000297
0.769528 0.213997 0.000000
0.852345 0.214248 0.000000
0.937426 0.214506 0.000000
1.000000 0.214773 0.000000
1.000000 0.214941 0.000000
1.000000 0.214941 0.000000
0.000000 0.287122 0.011415
0.000000 0.287122 0.011415
0.049194 0.287291 0.010290
0.130612 0.287557 0.008509
0.209410 0.287816 0.006785
0.286111 0.288067 0.005107
0.367075 0.288313 0.003463
0.447063 0.288556 0.001842
0.526485 0.288797 0.000232
0.605907 0.289038 0.000000
0.685895 0.289280 0.000000
0.767015 0.289527 0.000000
0.849833 0.289778 0.000000
0.934913 0.290036 0.000000
1.000000 0.290303 0.000000
1.000000 0.290471 0.000000
1.000000 0.290471 0.000000
0.000987 0.361104 0.008188
0.000987 0.361104 0.008188
0.052396 0.361272 0.007063
0.133814 0.361539 0.005282
0.212611 0.361797 0.003558
0.289313 0.362049 0.001879
0.364614 0.362295 0.000236
0.444602 0.362537 0.000000
0.524024 0.362778 0.000000
0.603446 0.363019 0.000000
0.683434 0.363262 0.000000
0.764554 0.363508 0.000000
0.847371 0.363760 0.000000
0.932452 0.364018 0.000000
1.000000 0.364284 0.000000
1.000000 0.364181 0.000000
1.000000 0.364181 0.000000
0.004143 0.434054 0.005006
0.004143 0.434054 0.005006
0.055552 0.434222 0.003881
0.136970 0.434489 0.002100
0.215768 0.434747 0.000376
0.292469 0.434998 0.000000
0.367598 0.435244 0.000000
0.442175 0.435487 0.000000
0.521597 0.435728 0.000000
0.601019 0.435969 0.000000
0.681007 0.436212 0.000000
0.762127 0.436458 0.000000
0.844944 0.436709 0.000000
0.928702 0.436566 0.000000
1.000000 0.435994 0.000000
1.000000 0.435633 0.000000
1.000000 0.435633 0.000000
0.007278 0.506487 0.001846
0.007278 0.506487 0.001846
0.058686 0.506656 0.000721
0.140104 0.506922 0.000000
0.218902 0.507181 0.000000
0.295603 0.507432 0.000000
0.370733 0.507678 0.000000
0.444814 0.507921 0.000000
0.519187 0.508162 0.000000
0.598610 0.508403 0.000000
0.678598 0.508645 0.000000
0.758771 0.508604 0.000000
0.838986 0.508066 0.000000
0.921393 0.507512 0.000000
1.000000 0.506941 0.000000
1.000000 0.506580 0.000000
1.000000 0.506580 0.000000
0.010412 0.578921 0.000000
0.010412 0.578921 0.000000
0.061821 0.579089 0.000000
0.143239 0.579356 0.000000
0.222036 0.579614 0.000000
0.298738 0.579865 0.000000
0.373867 0.580111 0.000000
0.447948 0.580354 0.000000
0.521505 0.580595 0.000000
0.595416 0.580598 0.000000
0.672891 0.580078 0.000000
0.751462 0.579551 0.000000
0.831677 0.579012 0.000000
0.914085 0.578459 0.000000
0.999232 0.577888 0.000000
1.000000 0.577589 0.000000
1.000000 0.577589 0.000000
0.013569 0.651870 0.000000
0.013569 0.651870 0.000000
0.064977 0.652039 0.000000
0.146395 0.652306 0.000000
0.225193 0.652564 0.000000
0.301894 0.652815 0.000000
0.377023 0.653061 0.000000
0.450415 0.653083 0.000000
0.521605 0.652567 0.000000
0.592796 0.652050 0.000000
0.665530 0.651530 0.000000
0.744101 0.651003 0.000000
0.824316 0.650464 0.000000
0.906438 0.649997 0.000000
0.991080 0.649578 0.000000
1.000000 0.649313 0.000000
1.000000 0.649313 0.000000
0.016770 0.725852 0.000000
0.016770 0.725852 0.000000
0.068179 0.726021 0.000000
0.149597 0.726287 0.000000
0.228394 0.726545 0.000000
0.304462 0.726594 0.000000
0.377173 0.726066 0.000000
0.448871 0.725546 0.000000
0.520061 0.725030 0.000000
0.591251 0.724514 0.000000
0.662948 0.723993 0.000000
0.736400 0.723537 0.000000
0.816139 0.723142 0.000000
0.898056 0.722736 0.000000
0.982698 0.722317 0.000000
1.000000 0.722053 0.000000
1.000000 0.722053 0.000000
0.020038 0.801382 0.000000
0.020038 0.801382 0.000000
0.071447 0.801550 0.000000
0.152389 0.801665 0.000000
0.228651 0.801112 0.000000
0.302885 0.800573 0.000000
0.375596 0.800046 0.000000
0.447294 0.799526 0.000000
0.518484 0.799009 0.000000
0.589454 0.798567 0.000000
0.660735 0.798185 0.000000
0.733025 0.797798 0.000000
0.807581 0.797404 0.000000
0.889499 0.796998 0.000000
0.974141 0.796579 0.000000
1.000000 0.796314 0.000000
1.000000 0.796314 0.000000
0.022216 0.878599 0.000000
0.022216 0.878599 0.000000
0.071971 0.878238 0.000000
0.150769 0.877666 0.000000
0.227031 0.877113 0.000000
0.301265 0.876575 0.000000
0.373976 0.876047 0.000000
0.445411 0.875615 0.000000
0.516188 0.875236 0.000000
0.586965 0.874858 0.000000
0.658246 0.874476 0.000000
0.730536 0.874089 0.000000
0.804339 0.873695 0.000000
0.880708 0.873289 0.000000
0.965350 0.872870 0.000000
1.000000 0.872605 0.000000
1.000000 0.872605 0.000000
0.020542 0.957128 0.000000
0.020542 0.957128 0.000000
0.070297 0.956767 0.000000
0.149095 0.956195 0.000000
0.225357 0.955642 0.000000
0.299268 0.955211 0.000000
0.371558 0.954824 0.000000
0.442839 0.954443 0.000000
0.513616 0.954064 0.000000
0.584393 0.953686 0.000000
0.655675 0.953304 0.000000
0.727964 0.952917 0.000000
0.801767 0.952522 0.000000
0.877587 0.952117 0.000000
0.956266 0.951698 0.000000
1.000000 0.951433 0.000000
1.000000 0.951433 0.000000
0.019485 1.000000 0.000000
0.019485 1.000000 0.000000
0.069240 1.000000 0.000000
0.148022 1.000000 0.000000
0.223842 1.000000 0.000000
0.297644 1.000000 0.000000
0.369934 1.000000 0.000000
0.441215 1.000000 0.000000
0.511992 1.000000 0.000000
0.582770 1.000000 0.000000
0.654051 1.000000 0.000000
0.726341 1.000000 0.000000
0.800143 1.000000 0.000000
0.875963 1.000000 0.000000
0.954304 1.000000 0.000000
1.000000 1.000000 0.000000
1.000000 1.000000 0.000000
0.019485 1.000000 0.000000
0.019485 1.000000 0.000000
0.069240 1.000000 0.000000
0.148022 1.000000 0.000000
0.223842 1.000000 0.000000
0.297644 1.000000 0.000000
0.369934 1.000000 0.000000
0.441215 1.000000 0.000000
0.511992 1.000000 0.000000
0.582770 1.000000 0.000000
0.654051 1.000000 0.000000
0.726341 1.000000 0.000000
0.800143 1.000000 0.000000
0.875963 1.000000 0.000000
0.954304 1.000000 0.000000
1.000000 1.000000 0.000000
1.000000 1.000000 0.000000
0.000000 0.003963 0.072091
0.000000 0.003963 0.072091
0.038692 0.003867 0.071562
0.122646 0.003715 0.070724
0.207831 0.003958 0.069034
0.290803 0.004209 0.067356
0.372074 0.004455 0.065712
0.452211 0.004698 0.064091
0.531781 0.004939 0.062482
0.611352 0.005180 0.060872
0.691489 0.005422 0.059251
0.772760 0.005668 0.057607
0.855731 0.005920 0.055929
0.940971 0.006178 0.054205
1.000000 0.006445 0.052424
1.000000 0.006613 0.051299
1.000000 0.006613 0.051299
0.000000 0.003963 0.072091
0.000000 0.003963 0.072091
0.038692 0.003867 0.071562
0.122646 0.003715 0.070724
0.207831 0.003958 0.069034
0.290803 0.004209 0.067356
0.372074 0.004455 0.065712
0.452211 0.004698 0.064091
0.531781 0.004939 0.062482
0.611352 0.005180 0.060872
0.691489 0.005422 0.059251
0.772760 0.005668 0.057607
0.855731 0.005920 0.055929
0.940971 0.006178 0.054205
1.000000 0.006445 0.052424
1.000000 0.006613 0.051299
1.000000 0.006613 0.051299
0.000000 0.054067 0.071052
0.000000 0.054067 0.071052
0.039525 0.054056 0.070331
0.125134 0.054323 0.068550
0.210374 0.054581 0.066826
0.293345 0.054832 0.065147
0.374616 0.055079 0.063504
0.454753 0.055321 0.061883
0.534324 0.055562 0.060273
0.613894 0.055803 0.058664
0.694031 0.056046 0.057043
0.775231 0.056292 0.055399
0.858048 0.056543 0.053721
0.943129 0.056801 0.051997
1.000000 0.057068 0.050215
1.000000 0.057237 0.049091
1.000000 0.057237 0.049091
0.000000 0.134062 0.067959
0.000000 0.134062 0.067959
0.042994 0.134231 0.066834
0.124412 0.134498 0.065052
0.208686 0.134756 0.063328
0.291503 0.135007 0.061650
0.372623 0.135253 0.060006
0.452611 0.135496 0.058385
0.532033 0.135737 0.056776
0.611456 0.135978 0.055167
0.691444 0.136220 0.053546
0.772563 0.136467 0.051902
0.855381 0.136718 0.050224
0.940462 0.136976 0.048500
1.000000 0.137243 0.046718
1.000000 0.137411 0.045593
1.000000 0.137411 0.045593
0.000000 0.211657 0.064574
0.000000 0.211657 0.064574
0.046352 0.211825 0.063449
0.127770 0.212092 0.061668
0.206567 0.212350 0.059944
0.288922 0.212601 0.058265
0.370042 0.212847 0.056622
0.450030 0.213090 0.055001
0.529452 0.213331 0.053391
0.608874 0.213572 0.051782
0.688862 0.213815 0.050161
0.769982 0.214061 0.048517
0.852800 0.214312 0.046839
0.937880 0.214570 0.045115
1.000000 0.214837 0.043333
1.000000 0.215005 0.042209
1.000000 0.215005 0.042209
0.000000 0.287187 0.061279
0.000000 0.287187 0.061279
0.049620 0.287355 0.060154
0.131038 0.287622 0.058373
0.209835 0.287880 0.056649
0.286537 0.288131 0.054971
0.367529 0.288377 0.053327
0.447517 0.288620 0.051706
0.526939 0.288861 0.050097
0.606362 0.289102 0.048487
0.686350 0.289345 0.046866
0.767469 0.289591 0.045222
0.850287 0.289842 0.043544
0.935368 0.290100 0.041820
1.000000 0.290367 0.040039
1.000000 0.290535 0.038914
1.000000 0.290535 0.038914
0.001412 0.361168 0.058052
0.001412 0.361168 0.058052
0.052821 0.361337 0.056927
0.134239 0.361603 0.055146
0.213037 0.361862 0.053422
0.289738 0.362113 0.051744
0.365068 0.362359 0.050100
0.445056 0.362602 0.048479
0.524478 0.362843 0.046869
0.603900 0.363084 0.045260
0.683888 0.363326 0.043639
0.765008 0.363572 0.041995
0.847826 0.363824 0.040317
0.932906 0.364082 0.038593
1.000000 0.364349 0.036812
1.000000 0.364044 0.036752
1.000000 0.364044 0.036752
0.004569 0.434118 0.054870
0.004569 0.434118 0.054870
0.055978 0.434286 0.053745
0.137396 0.434553 0.051964
0.216193 0.434811 0.050240
0.292895 0.435062 0.048561
0.368024 0.435309 0.046918
0.442629 0.435551 0.045297
0.522051 0.435792 0.043687
0.601474 0.436033 0.042078
0.681462 0.436276 0.040457
0.762581 0.436522 0.038813
0.845399 0.436773 0.037135
0.928492 0.436428 0.036768
1.000000 0.435857 0.036873
1.000000 0.435496 0.036939
1.000000 0.435496 0.036939
0.007703 0.506551 0.051710
0.007703 0.506551 0.051710
0.059112 0.506720 0.050585
0.140530 0.506987 0.048804
0.219328 0.507245 0.047080
0.296029 0.507496 0.045402
0.371158 0.507742 0.043758
0.445239 0.507985 0.042137
0.519642 0.508226 0.040528
0.599064 0.508467 0.038918
0.679052 0.508709 0.037297
0.758560 0.508467 0.036754
0.838775 0.507928 0.036853
0.921183 0.507375 0.036954
1.000000 0.506803 0.037059
1.000000 0.506442 0.037125
1.000000 0.506442 0.037125
0.010837 0.578985 0.048551
0.010837 0.578985 0.048551
0.062246 0.579153 0.047426
0.143664 0.579420 0.045644
0.222462 0.579678 0.043920
0.299163 0.579930 0.042242
0.374292 0.580176 0.040598
0.448373 0.580418 0.038978
0.521930 0.580659 0.037368
0.595206 0.580461 0.036748
0.672680 0.579941 0.036843
0.751251 0.579413 0.036940
0.831466 0.578875 0.037039
0.913874 0.578322 0.037140
0.999012 0.577753 0.037260
1.000000 0.577488 0.037856
1.000000 0.577488 0.037856
0.013994 0.651935 0.045369
0.013994 0.651935 0.045369
0.065403 0.652103 0.044244
0.146821 0.652370 0.042462
0.225618 0.652628 0.040738
0.302320 0.652879 0.039060
0.377449 0.653125 0.037416
0.450210 0.652946 0.036746
0.521400 0.652429 0.036840
0.592590 0.651913 0.036935
0.665319 0.651393 0.037030
0.743890 0.650865 0.037127
0.824105 0.650327 0.037226
0.906106 0.649896 0.038002
0.990748 0.649477 0.038945
1.000000 0.649213 0.039540
1.000000 0.649213 0.039540
0.017195 0.725916 0.042141
0.017195 0.725916 0.042141
0.068604 0.726085 0.041017
0.150022 0.726351 0.039235
0.228820 0.726610 0.037511
0.304256 0.726456 0.036744
0.376968 0.725929 0.036840
0.448665 0.725409 0.036936
0.519856 0.724892 0.037030
0.591046 0.724376 0.037125
0.662743 0.723856 0.037220
0.736068 0.723436 0.037909
0.815806 0.723041 0.038798
0.897724 0.722636 0.039710
0.982366 0.722216 0.040653
1.000000 0.721952 0.041249
1.000000 0.721952 0.041249
0.020463 0.801446 0.038847
0.020463 0.801446 0.038847
0.071872 0.801615 0.037722
0.152184 0.801527 0.036737
0.228446 0.800974 0.036839
0.302679 0.800436 0.036937
0.375391 0.799908 0.037034
0.447089 0.799388 0.037129
0.518279 0.798872 0.037224
0.589138 0.798466 0.037925
0.660420 0.798084 0.038783
0.732709 0.797697 0.039653
0.807249 0.797303 0.040542
0.889167 0.796897 0.041455
0.973808 0.796478 0.042398
1.000000 0.796213 0.042993
1.000000 0.796213 0.042993
0.022011 0.878461 0.036765
0.022011 0.878461 0.036765
0.071765 0.878100 0.036832
0.150564 0.877529 0.036936
0.226826 0.876976 0.037038
0.301059 0.876437 0.037136
0.373771 0.875910 0.037233
0.445095 0.875514 0.038013
0.515872 0.875135 0.038865
0.586649 0.874757 0.039717
0.657931 0.874375 0.040575
0.730221 0.873988 0.041445
0.804023 0.873594 0.042334
0.880375 0.873188 0.043246
0.965017 0.872769 0.044190
1.000000 0.872504 0.044785
1.000000 0.872504 0.044785
0.020337 0.956990 0.036971
0.020337 0.956990 0.036971
0.070092 0.956629 0.037037
0.148890 0.956057 0.037142
0.225150 0.955505 0.037247
0.298953 0.955110 0.038136
0.371242 0.954723 0.039006
0.442524 0.954342 0.039864
0.513301 0.953963 0.040716
0.584078 0.953585 0.041568
0.655359 0.953203 0.042426
0.727649 0.952816 0.043297
0.801452 0.952422 0.044185
0.877271 0.952016 0.045098
0.955934 0.951597 0.046041
1.000000 0.951332 0.046637
1.000000 0.951332 0.046637
0.019280 1.000000 0.037101
0.019280 1.000000 0.037101
0.069035 1.000000 0.037167
0.147707 1.000000 0.037504
0.223526 1.000000 0.038417
0.297329 1.000000 0.039305
0.369619 1.000000 0.040175
0.440900 1.000000 0.041033
0.511677 1.000000 0.041885
0.582454 1.000000 0.042737
0.653736 1.000000 0.043596
0.726025 1.000000 0.044466
0.799828 1.000000 0.045354
0.875648 1.000000 0.046267
0.953989 1.000000 0.047210
1.000000 1.000000 0.047806
1.000000 1.000000 0.047806
0.019280 1.000000 0.037101
0.019280 1.000000 0.037101
0.069035 1.000000 0.037167
0.147707 1.000000 0.037504
0.223526 1.000000 0.038417
0.297329 1.000000 0.039305
0.369619 1.000000 0.040175
0.440900 1.000000 0.041033
0.511677 1.000000 0.041885
0.582454 1.000000 0.042737
0.653736 1.000000 0.043596
0.726025 1.000000 0.044466
0.799828 1.000000 0.045354
0.875648 1.000000 0.046267
0.953989 1.000000 0.047210
1.000000 1.000000 0.047806
1.000000 1.000000 0.047806
0.000000 0.003905 0.151422
0.000000 0.003905 0.151422
0.038866 0.003809 0.150893
0.119426 0.003801 0.149730
0.202241 0.004059 0.148005
0.285213 0.004311 0.146327
0.366484 0.004557 0.144683
0.446621 0.004799 0.143063
0.526191 0.005040 0.141453
0.605761 0.005281 0.139844
0.685899 0.005524 0.138223
0.767170 0.005770 0.136579
0.850141 0.006021 0.134901
0.935381 0.006280 0.133177
1.000000 0.006546 0.131395
1.000000 0.006715 0.130271
1.000000 0.006715 0.130271
0.000000 0.003905 0.151422
