app/src/main/assets/lut/leica_chrome.cube
TITLE "Filmic Leica Chrome"
LUT_3D_SIZE 5
DOMAIN_MIN 0.0 0.0 0.0
DOMAIN_MAX 1.0 1.0 1.0
0.000000 0.004000 0.022000
0.211361 0.003893 0.019170
0.535311 0.004874 0.012617
0.859261 0.005855 0.006065
1.000000 0.006549 0.001435
0.000000 0.211592 0.014710
0.206142 0.212286 0.010079
0.528998 0.213267 0.003527
0.852345 0.214248 0.000000
1.000000 0.214941 0.000000
0.007278 0.506487 0.001846
0.218902 0.507181 0.000000
0.519187 0.508162 0.000000
0.838986 0.508066 0.000000
1.000000 0.506580 0.000000
0.020038 0.801382 0.000000
0.228651 0.801112 0.000000
0.518484 0.799009 0.000000
0.807581 0.797404 0.000000
1.000000 0.796314 0.000000
0.019485 1.000000 0.000000
0.223842 1.000000 0.000000
0.511992 1.000000 0.000000
0.800143 1.000000 0.000000
1.000000 1.000000 0.000000
0.000000 0.003849 0.228200
0.198876 0.004158 0.224436
0.520781 0.005139 0.217883
0.844731 0.006120 0.211331
1.000000 0.006813 0.206701
0.000000 0.211857 0.219976
0.207893 0.212550 0.215345
0.530868 0.213531 0.208793
0.854215 0.214512 0.202241
1.000000 0.215205 0.197610
0.009029 0.506752 0.207112
0.220653 0.507445 0.202482
0.521058 0.508426 0.195929
0.838119 0.507499 0.193670
1.000000 0.506014 0.193942
0.021789 0.801646 0.194248
0.227806 0.800545 0.193656
0.517378 0.798530 0.194519
0.806213 0.796988 0.197988
1.000000 0.795899 0.200439
0.018640 1.000000 0.193918
0.222544 1.000000 0.195862
0.510694 1.000000 0.199331
0.798845 1.000000 0.202800
1.000000 1.000000 0.205251
0.000000 0.003838 0.519536
0.201354 0.004532 0.514906
0.500822 0.005513 0.508354
0.824170 0.006494 0.501801
1.000000 0.007187 0.497171
0.000000 0.212231 0.510446
0.210371 0.212924 0.505816
0.510686 0.213905 0.499264
0.834636 0.214886 0.492711
1.000000 0.215580 0.488081
0.011507 0.507126 0.497583
0.223132 0.507819 0.492952
0.523704 0.508800 0.486400
0.836892 0.506698 0.486785
1.000000 0.505369 0.487920
0.021795 0.801229 0.486499
0.226611 0.799744 0.486771
0.515542 0.797942 0.488810
0.804276 0.796400 0.492279
1.000000 0.795311 0.494730
0.017080 1.000000 0.487702
0.220707 1.000000 0.490154
0.508857 1.000000 0.493623
0.797008 1.000000 0.497091
1.000000 1.000000 0.499543
0.000000 0.004212 0.810007
0.203832 0.004906 0.805377
0.503300 0.005887 0.798824
0.803609 0.006868 0.792272
1.000000 0.007561 0.787642
0.001225 0.212605 0.800917
0.212849 0.213298 0.796286
0.512318 0.214279 0.789734
0.814075 0.215260 0.783182
1.000000 0.215569 0.779417
0.013985 0.507500 0.788053
0.225610 0.508193 0.783423
0.521404 0.507998 0.779516
0.813744 0.505896 0.779901
1.000000 0.504781 0.782212
0.020600 0.800428 0.779615
0.225415 0.798942 0.779887
0.513705 0.797354 0.783101
0.802339 0.795813 0.786570
1.000000 0.794723 0.789022
0.015243 1.000000 0.781994
0.218870 1.000000 0.784445
0.507021 1.000000 0.787914
0.795171 1.000000 0.791383
1.000000 1.000000 0.792969
0.000000 0.004477 1.000000
0.205583 0.005170 1.000000
0.505052 0.006151 1.000000
0.804520 0.007132 0.997538
1.000000 0.007826 0.992908
0.002976 0.212869 1.000000
0.214601 0.213562 1.000000
0.514069 0.214544 0.995000
0.813538 0.215525 0.988448
1.000000 0.215003 0.986552
0.015737 0.507764 0.993319
0.227361 0.508457 0.988689
0.520559 0.507432 0.986651
0.810016 0.505455 0.987726
1.000000 0.504366 0.990177
0.019755 0.799861 0.986750
0.224256 0.798481 0.987598
0.512407 0.796939 0.991067
0.800557 0.795397 0.994536
1.000000 0.794308 0.996988
0.013945 1.000000 0.989960
0.217572 1.000000 0.992411
0.505722 1.000000 0.995880
0.793873 1.000000 0.999349
1.000000 1.000000 1.000000
