app/src/main/assets/lut/leica_chrome.cube
TITLE "Filmic Leica Chrome"
LUT_3D_SIZE 9
DOMAIN_MIN 0.0 0.0 0.0
DOMAIN_MAX 1.0 1.0 1.0
0.000000 0.004000 0.022000
0.039951 0.003904 0.021471
0.211361 0.003893 0.019170
0.375604 0.004391 0.015848
0.535311 0.004874 0.012617
0.695018 0.005358 0.009387
0.859261 0.005855 0.006065
1.000000 0.006380 0.002560
1.000000 0.006549 0.001435
0.000000 0.054104 0.020961
0.039149 0.054008 0.020432
0.210899 0.054517 0.016961
0.374836 0.055014 0.013639
0.534246 0.055498 0.010409
0.693657 0.055982 0.007179
0.857594 0.056479 0.003857
1.000000 0.057004 0.000351
1.000000 0.057172 0.000000
0.000000 0.211592 0.014710
0.045926 0.211761 0.013585
0.206142 0.212286 0.010079
0.369587 0.212783 0.006757
0.528998 0.213267 0.003527
0.688408 0.213750 0.000297
0.852345 0.214248 0.000000
1.000000 0.214773 0.000000
1.000000 0.214941 0.000000
0.000987 0.361104 0.008188
0.052396 0.361272 0.007063
0.212611 0.361797 0.003558
0.364614 0.362295 0.000236
0.524024 0.362778 0.000000
0.683434 0.363262 0.000000
0.847371 0.363760 0.000000
1.000000 0.364284 0.000000
1.000000 0.364181 0.000000
0.007278 0.506487 0.001846
0.058686 0.506656 0.000721
0.218902 0.507181 0.000000
0.370733 0.507678 0.000000
0.519187 0.508162 0.000000
0.678598 0.508645 0.000000
0.838986 0.508066 0.000000
1.000000 0.506941 0.000000
1.000000 0.506580 0.000000
0.013569 0.651870 0.000000
0.064977 0.652039 0.000000
0.225193 0.652564 0.000000
0.377023 0.653061 0.000000
0.521605 0.652567 0.000000
0.665530 0.651530 0.000000
0.824316 0.650464 0.000000
0.991080 0.649578 0.000000
1.000000 0.649313 0.000000
0.020038 0.801382 0.000000
0.071447 0.801550 0.000000
0.228651 0.801112 0.000000
0.375596 0.800046 0.000000
0.518484 0.799009 0.000000
0.660735 0.798185 0.000000
0.807581 0.797404 0.000000
0.974141 0.796579 0.000000
1.000000 0.796314 0.000000
0.020542 0.957128 0.000000
0.070297 0.956767 0.000000
0.225357 0.955642 0.000000
0.371558 0.954824 0.000000
0.513616 0.954064 0.000000
0.655675 0.953304 0.000000
0.801767 0.952522 0.000000
0.956266 0.951698 0.000000
1.000000 0.951433 0.000000
0.019485 1.000000 0.000000
0.069240 1.000000 0.000000
0.223842 1.000000 0.000000
0.369934 1.000000 0.000000
0.511992 1.000000 0.000000
0.654051 1.000000 0.000000
0.800143 1.000000 0.000000
0.954304 1.000000 0.000000
1.000000 1.000000 0.000000
0.000000 0.003963 0.072091
0.038692 0.003867 0.071562
0.207831 0.003958 0.069034
0.372074 0.004455 0.065712
0.531781 0.004939 0.062482
0.691489 0.005422 0.059251
0.855731 0.005920 0.055929
1.000000 0.006445 0.052424
1.000000 0.006613 0.051299
0.000000 0.054067 0.071052
0.039525 0.054056 0.070331
0.210374 0.054581 0.066826
0.374616 0.055079 0.063504
0.534324 0.055562 0.060273
0.694031 0.056046 0.057043
0.858048 0.056543 0.053721
1.000000 0.057068 0.050215
1.000000 0.057237 0.049091
0.000000 0.211657 0.064574
0.046352 0.211825 0.063449
0.206567 0.212350 0.059944
0.370042 0.212847 0.056622
0.529452 0.213331 0.053391
0.688862 0.213815 0.050161
0.852800 0.214312 0.046839
1.000000 0.214837 0.043333
1.000000 0.215005 0.042209
0.001412 0.361168 0.058052
0.052821 0.361337 0.056927
0.213037 0.361862 0.053422
0.365068 0.362359 0.050100
0.524478 0.362843 0.046869
0.683888 0.363326 0.043639
0.847826 0.363824 0.040317
1.000000 0.364349 0.036812
1.000000 0.364044 0.036752
0.007703 0.506551 0.051710
0.059112 0.506720 0.050585
0.219328 0.507245 0.047080
0.371158 0.507742 0.043758
0.519642 0.508226 0.040528
0.679052 0.508709 0.037297
0.838775 0.507928 0.036853
1.000000 0.506803 0.037059
1.000000 0.506442 0.037125
0.013994 0.651935 0.045369
0.065403 0.652103 0.044244
0.225618 0.652628 0.040738
0.377449 0.653125 0.037416
0.521400 0.652429 0.036840
0.665319 0.651393 0.037030
0.824105 0.650327 0.037226
0.990748 0.649477 0.038945
1.000000 0.649213 0.039540
0.020463 0.801446 0.038847
0.071872 0.801615 0.037722
0.228446 0.800974 0.036839
0.375391 0.799908 0.037034
0.518279 0.798872 0.037224
0.660420 0.798084 0.038783
0.807249 0.797303 0.040542
0.973808 0.796478 0.042398
1.000000 0.796213 0.042993
0.020337 0.956990 0.036971
0.070092 0.956629 0.037037
0.225150 0.955505 0.037247
0.371242 0.954723 0.039006
0.513301 0.953963 0.040716
0.655359 0.953203 0.042426
0.801452 0.952422 0.044185
0.955934 0.951597 0.046041
1.000000 0.951332 0.046637
0.019280 1.000000 0.037101
0.069035 1.000000 0.037167
0.223526 1.000000 0.038417
0.369619 1.000000 0.040175
0.511677 1.000000 0.041885
0.653736 1.000000 0.043596
0.799828 1.000000 0.045354
0.953989 1.000000 0.047210
1.000000 1.000000 0.047806
0.000000 0.003849 0.228200
0.039035 0.003753 0.227671
0.198876 0.004158 0.224436
0.361074 0.004655 0.221114
0.520781 0.005139 0.217883
0.680488 0.005622 0.214653
0.844731 0.006120 0.211331
1.000000 0.006645 0.207825
1.000000 0.006813 0.206701
0.000000 0.054088 0.226858
0.040851 0.054256 0.225733
0.201066 0.054781 0.222227
0.363616 0.055279 0.218905
0.523323 0.055762 0.215675
0.683031 0.056246 0.212445
0.847274 0.056743 0.209123
1.000000 0.057268 0.205617
1.000000 0.057437 0.204492
0.000000 0.211857 0.219976
0.047677 0.212025 0.218851
0.207893 0.212550 0.215345
0.371458 0.213047 0.212023
0.530868 0.213531 0.208793
0.690278 0.214015 0.205563
0.854215 0.214512 0.202241
1.000000 0.215037 0.198735
1.000000 0.215205 0.197610
0.002738 0.361368 0.213454
0.054147 0.361537 0.212329
0.214362 0.362062 0.208823
0.366484 0.362559 0.205501
0.525894 0.363043 0.202271
0.685304 0.363526 0.199041
0.849242 0.364024 0.195719
1.000000 0.363976 0.193503
1.000000 0.363615 0.193569
0.009029 0.506752 0.207112
0.060438 0.506920 0.205987
0.220653 0.507445 0.202482
0.372484 0.507942 0.199160
0.521058 0.508426 0.195929
0.679333 0.508565 0.193474
0.838119 0.507499 0.193670
1.000000 0.506374 0.193876
1.000000 0.506014 0.193942
0.015320 0.652135 0.200770
0.066729 0.652303 0.199646
0.226944 0.652828 0.196140
0.377873 0.653037 0.193467
0.520760 0.652000 0.193657
0.664663 0.650964 0.193847
0.823152 0.649988 0.194535
0.989711 0.649163 0.196391
1.000000 0.648898 0.196986
0.021789 0.801646 0.194248
0.072746 0.801670 0.193449
0.227806 0.800545 0.193656
0.374751 0.799479 0.193851
0.517378 0.798530 0.194519
0.659437 0.797770 0.196229
0.806213 0.796988 0.197988
0.972772 0.796163 0.199844
1.000000 0.795899 0.200439
0.019697 0.956561 0.193788
0.069452 0.956200 0.193854
0.224167 0.955191 0.194693
0.370260 0.954409 0.196452
0.512318 0.953649 0.198162
0.654377 0.952889 0.199872
0.800469 0.952107 0.201631
0.954898 0.951282 0.203487
1.000000 0.951018 0.204082
0.018640 1.000000 0.193918
0.068383 1.000000 0.194007
0.222544 1.000000 0.195862
0.368636 1.000000 0.197621
0.510694 1.000000 0.199331
0.652753 1.000000 0.201041
0.798845 1.000000 0.202800
0.953006 1.000000 0.204656
1.000000 1.000000 0.205251
0.000000 0.003741 0.376140
0.039916 0.003822 0.375210
0.200132 0.004347 0.371704
0.351963 0.004845 0.368382
0.510356 0.005328 0.365152
0.670064 0.005812 0.361922
0.834307 0.006309 0.358600
1.000000 0.006834 0.355094
1.000000 0.007003 0.353969
0.000000 0.054278 0.374126
0.042107 0.054446 0.373001
0.202323 0.054971 0.369496
0.354153 0.055468 0.366174
0.512899 0.055952 0.362944
0.672606 0.056436 0.359713
0.836849 0.056933 0.356391
1.000000 0.057458 0.352886
1.000000 0.057626 0.351761
0.000000 0.212046 0.367244
0.048934 0.212215 0.366119
0.209149 0.212740 0.362614
0.361115 0.213237 0.359292
0.520822 0.213721 0.356062
0.680530 0.214204 0.352831
0.844773 0.214702 0.349509
1.000000 0.215227 0.346004
1.000000 0.215395 0.344879
0.003995 0.361558 0.360722
0.055403 0.361726 0.359598
0.215619 0.362251 0.356092
0.367825 0.362749 0.352770
0.527236 0.363232 0.349540
0.686646 0.363716 0.346309
0.850583 0.364214 0.342987
1.000000 0.363569 0.342113
1.000000 0.363208 0.342179
0.010285 0.506941 0.354381
0.061694 0.507110 0.353256
0.221910 0.507634 0.349750
0.373740 0.508132 0.346428
0.522399 0.508616 0.343198
0.678710 0.508159 0.342084
0.837497 0.507093 0.342279
1.000000 0.505968 0.342486
1.000000 0.505659 0.342835
0.016576 0.652324 0.348039
0.067985 0.652493 0.346914
0.228201 0.653018 0.343409
0.377267 0.652630 0.342077
0.520154 0.651594 0.342267
0.664041 0.650558 0.342457
0.822170 0.649689 0.343741
0.988729 0.648865 0.345596
1.000000 0.648600 0.346192
0.022385 0.801625 0.341993
0.072140 0.801264 0.342059
0.227200 0.800139 0.342265
0.374145 0.799073 0.342461
0.516447 0.798232 0.343724
0.658505 0.797472 0.345435
0.805231 0.796690 0.347193
0.971790 0.795865 0.349049
1.000000 0.795601 0.349645
0.019091 0.956155 0.342398
0.068846 0.955794 0.342464
0.223236 0.954893 0.343899
0.369328 0.954111 0.345658
0.511387 0.953351 0.347368
0.653445 0.952591 0.349078
0.799538 0.951809 0.350837
0.953916 0.950984 0.352693
1.000000 0.950720 0.353288
0.017986 1.000000 0.342617
0.067451 1.000000 0.343212
0.221612 1.000000 0.345068
0.367705 1.000000 0.346827
0.509763 1.000000 0.348537
0.651821 1.000000 0.350247
0.797914 1.000000 0.352006
0.952075 1.000000 0.353862
1.000000 1.000000 0.354457
0.000000 0.003838 0.519536
0.041138 0.004007 0.518412
0.201354 0.004532 0.514906
0.353184 0.005029 0.511584
0.500822 0.005513 0.508354
0.659927 0.005996 0.505124
0.824170 0.006494 0.501801
0.997483 0.007019 0.498296
1.000000 0.007187 0.497171
0.000000 0.054462 0.517328
0.043329 0.054630 0.516203
0.203544 0.055155 0.512698
0.355375 0.055653 0.509376
0.503013 0.056136 0.506146
0.662470 0.056620 0.502915
0.826712 0.057118 0.499593
1.000000 0.057642 0.496088
1.000000 0.057811 0.494963
0.000000 0.212231 0.510446
0.050155 0.212399 0.509321
0.210371 0.212924 0.505816
0.362202 0.213421 0.502494
0.510686 0.213905 0.499264
0.670393 0.214389 0.496033
0.834636 0.214886 0.492711
1.000000 0.215411 0.489206
1.000000 0.215580 0.488081
0.005216 0.361742 0.503924
0.056625 0.361911 0.502800
0.216841 0.362436 0.499294
0.368671 0.362933 0.495972
0.518195 0.363417 0.492742
0.677902 0.363901 0.489511
0.841792 0.364299 0.486412
1.000000 0.363174 0.486619
1.000000 0.362813 0.486685
0.011507 0.507126 0.497583
0.062916 0.507294 0.496458
0.223132 0.507819 0.492952
0.374962 0.508316 0.489630
0.523704 0.508800 0.486400
0.678105 0.507764 0.486590
0.836892 0.506698 0.486785
1.000000 0.505633 0.487325
1.000000 0.505369 0.487920
0.017798 0.652509 0.491241
0.069207 0.652677 0.490116
0.229422 0.653202 0.486611
0.376677 0.652235 0.486583
0.519565 0.651199 0.486773
0.663372 0.650181 0.487068
0.821215 0.649400 0.488826
0.987774 0.648575 0.490682
1.000000 0.648310 0.491278
0.021795 0.801229 0.486499
0.071550 0.800869 0.486565
0.226611 0.799744 0.486771
0.373483 0.798702 0.487100
0.515542 0.797942 0.488810
0.657600 0.797182 0.490520
0.804276 0.796400 0.492279
0.970835 0.795575 0.494135
1.000000 0.795311 0.494730
0.018502 0.955760 0.486904
0.068170 0.955428 0.487129
0.222330 0.954603 0.488985
0.368423 0.953821 0.490743
0.510481 0.953061 0.492454
0.652540 0.952301 0.494164
0.798632 0.951519 0.495922
0.952961 0.950694 0.497778
1.000000 0.950430 0.498374
0.017080 1.000000 0.487702
0.066546 1.000000 0.488298
0.220707 1.000000 0.490154
0.366799 1.000000 0.491912
0.508857 1.000000 0.493623
0.650916 1.000000 0.495333
0.797008 1.000000 0.497091
0.951169 1.000000 0.498947
1.000000 1.000000 0.499543
0.000000 0.004023 0.662738
0.042360 0.004191 0.661614
0.202576 0.004716 0.658108
0.354406 0.005214 0.654786
0.502044 0.005697 0.651556
0.649791 0.006181 0.648325
0.814033 0.006678 0.645003
0.987347 0.007203 0.641498
1.000000 0.007372 0.640373
0.000000 0.054646 0.660530
0.044550 0.054815 0.659405
0.204766 0.055340 0.655900
0.356597 0.055837 0.652578
0.504235 0.056321 0.649348
0.652333 0.056805 0.646117
0.816576 0.057302 0.642795
0.989889 0.057827 0.639290
1.000000 0.057995 0.638165
0.000000 0.212415 0.653648
0.051377 0.212584 0.652523
0.211593 0.213108 0.649018
0.363423 0.213606 0.645696
0.511061 0.214090 0.642466
0.660256 0.214573 0.639235
0.824499 0.215071 0.635913
0.997813 0.215596 0.632408
1.000000 0.215764 0.631283
0.006438 0.361927 0.647126
0.057847 0.362095 0.646001
0.218062 0.362620 0.642496
0.369893 0.363118 0.639174
0.517531 0.363601 0.635944
0.667765 0.364085 0.632713
0.829595 0.363904 0.630918
0.997044 0.362779 0.631125
1.000000 0.362418 0.631191
0.012729 0.507310 0.640785
0.064138 0.507478 0.639660
0.224353 0.508003 0.636154
0.376184 0.508501 0.632832
0.522011 0.508405 0.630906
0.667602 0.507368 0.631096
0.826287 0.506302 0.631291
0.993126 0.505344 0.632410
1.000000 0.505079 0.633006
0.019020 0.652693 0.634443
0.070428 0.652862 0.633318
0.229143 0.652906 0.630894
0.376088 0.651840 0.631089
0.518975 0.650804 0.631279
0.662418 0.649892 0.632153
0.820260 0.649110 0.633912
0.986820 0.648285 0.635768
1.000000 0.648020 0.636363
0.021206 0.800834 0.631005
0.070961 0.800473 0.631071
0.226021 0.799349 0.631277
0.372578 0.798412 0.632186
0.514636 0.797652 0.633896
0.656694 0.796892 0.635606
0.803321 0.796111 0.637365
0.969880 0.795286 0.639220
1.000000 0.795021 0.639816
0.017798 0.955402 0.631619
0.067264 0.955138 0.632214
0.221425 0.954313 0.634070
0.367517 0.953531 0.635829
0.509576 0.952771 0.637539
0.651634 0.952011 0.639249
0.797726 0.951230 0.641008
0.952006 0.950405 0.642864
1.000000 0.950140 0.643459
0.016174 1.000000 0.632788
0.065640 1.000000 0.633384
0.219801 1.000000 0.635239
0.365894 1.000000 0.636998
0.507952 1.000000 0.638708
0.650010 1.000000 0.640418
0.796103 1.000000 0.642177
0.950264 1.000000 0.644033
1.000000 1.000000 0.644434
0.000000 0.004212 0.810007
0.043616 0.004381 0.808882
0.203832 0.004906 0.805377
0.355662 0.005403 0.802055
0.503300 0.005887 0.798824
0.650938 0.006371 0.795594
0.803609 0.006868 0.792272
0.976922 0.007393 0.788767
1.000000 0.007561 0.787642
0.000000 0.054836 0.807799
0.045807 0.055004 0.806674
0.206022 0.055529 0.803168
0.357853 0.056027 0.799846
0.505491 0.056510 0.796616
0.653129 0.056994 0.793386
0.806151 0.057492 0.790064
0.979464 0.058016 0.786558
1.000000 0.058185 0.785434
0.001225 0.212605 0.800917
0.052634 0.212773 0.799792
0.212849 0.213298 0.796286
0.364680 0.213796 0.792964
0.512318 0.214279 0.789734
0.659956 0.214763 0.786504
0.814075 0.215260 0.783182
0.987388 0.215785 0.779676
1.000000 0.215569 0.779417
0.007694 0.362117 0.794395
0.059103 0.362285 0.793270
0.219319 0.362810 0.789765
0.371149 0.363307 0.786443
0.518787 0.363791 0.783212
0.666425 0.364275 0.779982
0.817052 0.363497 0.779528
0.984501 0.362373 0.779734
1.000000 0.362012 0.779800
0.013985 0.507500 0.788053
0.065394 0.507668 0.786928
0.225610 0.508193 0.783423
0.377440 0.508690 0.780101
0.521404 0.507998 0.779516
0.664292 0.506962 0.779706
0.813744 0.505896 0.779901
0.980183 0.505046 0.781616
1.000000 0.504781 0.782212
0.020276 0.652883 0.781711
0.071685 0.653051 0.780587
0.228536 0.652500 0.779503
0.375482 0.651434 0.779699
0.518369 0.650397 0.779889
0.660558 0.649594 0.781359
0.808534 0.648812 0.783118
0.974879 0.647987 0.784973
1.000000 0.647722 0.785569
0.020600 0.800428 0.779615
0.070354 0.800067 0.779681
0.225415 0.798942 0.779887
0.371646 0.798114 0.781391
0.513705 0.797354 0.783101
0.655763 0.796594 0.784812
0.802339 0.795813 0.786570
0.968898 0.794988 0.788426
1.000000 0.794723 0.789022
0.016867 0.955104 0.780825
0.066333 0.954840 0.781420
0.220493 0.954015 0.783276
0.366586 0.953233 0.785035
0.508644 0.952473 0.786745
0.650703 0.951713 0.788455
0.796795 0.950931 0.790214
0.951024 0.950107 0.792070
1.000000 0.949842 0.792665
0.015243 1.000000 0.781994
0.064709 1.000000 0.782589
0.218870 1.000000 0.784445
0.364962 1.000000 0.786204
0.507021 1.000000 0.787914
0.649079 1.000000 0.789624
0.795171 1.000000 0.791383
0.949707 1.000000 0.792969
1.000000 1.000000 0.792969
0.000000 0.004413 0.965409
0.044942 0.004581 0.964284
0.205158 0.005106 0.960778
0.356988 0.005603 0.957456
0.504626 0.006087 0.954226
0.652264 0.006571 0.950996
0.804095 0.007068 0.947674
0.965922 0.007593 0.944168
1.000000 0.007761 0.943043
0.000000 0.055036 0.963200
0.047133 0.055205 0.962076
0.207348 0.055730 0.958570
0.359179 0.056227 0.955248
0.506817 0.056711 0.952018
0.654455 0.057194 0.948788
0.806285 0.057692 0.945466
0.968464 0.058217 0.941960
1.000000 0.058385 0.940835
0.002551 0.212805 0.956318
0.053959 0.212973 0.955194
0.214175 0.213498 0.951688
0.366006 0.213996 0.948366
0.513644 0.214479 0.945136
0.661282 0.214963 0.941906
0.813112 0.215460 0.938584
0.974666 0.215501 0.936168
1.000000 0.215140 0.936234
0.009020 0.362317 0.949797
0.060429 0.362485 0.948672
0.220645 0.363010 0.945166
0.372475 0.363507 0.941844
0.520113 0.363991 0.938614
0.666687 0.364134 0.936150
0.813633 0.363068 0.936345
0.971265 0.361944 0.936551
1.000000 0.361583 0.936617
0.015311 0.507700 0.943455
0.066720 0.507868 0.942330
0.226935 0.508393 0.938825
0.377877 0.508606 0.936143
0.520765 0.507570 0.936333
0.663652 0.506533 0.936523
0.810331 0.505556 0.937206
0.966526 0.504731 0.939062
1.000000 0.504467 0.939657
0.021602 0.653083 0.937113
0.072836 0.653196 0.936114
0.227897 0.652071 0.936320
0.374842 0.651005 0.936516
0.517517 0.650039 0.937095
0.659576 0.649279 0.938805
0.805668 0.648497 0.940563
0.961222 0.647673 0.942419
1.000000 0.647408 0.943015
0.019960 0.799999 0.936431
0.069715 0.799638 0.936498
0.224571 0.798581 0.937078
0.370663 0.797800 0.938837
0.512722 0.797040 0.940547
0.654780 0.796280 0.942257
0.800873 0.795498 0.944016
0.955766 0.794673 0.945872
1.000000 0.794409 0.946468
0.015884 0.954790 0.938271
0.065350 0.954525 0.938866
0.219511 0.953700 0.940722
0.365603 0.952919 0.942481
0.507662 0.952159 0.944191
0.649720 0.951399 0.945901
0.795812 0.950617 0.947660
0.949988 0.949792 0.949515
1.000000 0.949707 0.949707
0.014260 1.000000 0.939440
0.063726 1.000000 0.940035
0.217887 1.000000 0.941891
0.363979 1.000000 0.943650
0.506038 1.000000 0.945360
0.648096 1.000000 0.947070
0.794189 1.000000 0.948829
0.949707 1.000000 0.949707
1.000000 1.000000 0.949707
0.000000 0.004477 1.000000
0.045368 0.004645 1.000000
0.205583 0.005170 1.000000
0.357414 0.005668 1.000000
0.505052 0.006151 1.000000
0.652690 0.006635 1.000000
0.804520 0.007132 0.997538
0.964736 0.007657 0.994032
1.000000 0.007826 0.992908
0.000000 0.055100 1.000000
0.047558 0.055269 1.000000
0.207774 0.055794 1.000000
0.359604 0.056291 1.000000
0.507242 0.056775 1.000000
0.654880 0.057258 0.998652
0.806711 0.057756 0.995330
0.966926 0.058281 0.991824
1.000000 0.058449 0.990699
0.002976 0.212869 1.000000
0.054385 0.213038 1.000000
0.214601 0.213562 1.000000
0.366431 0.214060 0.998230
0.514069 0.214544 0.995000
0.661707 0.215027 0.991770
0.813538 0.215525 0.988448
0.971609 0.215363 0.986486
1.000000 0.215003 0.986552
0.009446 0.362381 0.999661
0.060854 0.362549 0.998536
0.221070 0.363074 0.995030
0.372901 0.363572 0.991708
0.520539 0.364055 0.988478
0.666482 0.363997 0.986468
0.813427 0.362931 0.986663
0.968488 0.361806 0.986869
1.000000 0.361445 0.986936
0.015737 0.507764 0.993319
0.067145 0.507932 0.992194
0.227361 0.508457 0.988689
0.377672 0.508468 0.986461
0.520559 0.507432 0.986651
0.663447 0.506396 0.986841
0.810016 0.505455 0.987726
0.964177 0.504630 0.989582
1.000000 0.504366 0.990177
0.022027 0.653147 0.986977
0.072631 0.653058 0.986432
0.227691 0.651933 0.986638
0.374637 0.650867 0.986834
0.517202 0.649938 0.987615
0.659260 0.649178 0.989325
0.805353 0.648397 0.991083
0.959514 0.647572 0.992939
1.000000 0.647307 0.993535
0.019755 0.799861 0.986750
0.069510 0.799501 0.986816
0.224256 0.798481 0.987598
0.370348 0.797699 0.989357
0.512407 0.796939 0.991067
0.654465 0.796179 0.992777
0.800557 0.795397 0.994536
0.954718 0.794572 0.996392
1.000000 0.794308 0.996988
0.015569 0.954689 0.988791
0.065035 0.954424 0.989386
0.219195 0.953600 0.991242
0.365288 0.952818 0.993001
0.507346 0.952058 0.994711
0.649405 0.951298 0.996421
0.795497 0.950516 0.998180
0.949707 0.949707 1.000000
1.000000 0.949707 1.000000
0.013945 1.000000 0.989960
0.063411 1.000000 0.990555
0.217572 1.000000 0.992411
0.363664 1.000000 0.994170
0.505722 1.000000 0.995880
0.647781 1.000000 0.997590
0.793873 1.000000 0.999349
0.949707 1.000000 1.000000
1.000000 1.000000 1.000000
